S3TE/MultimodalPlayBehaviorAssessment/Multimodal_Play_Behavior_Dataset_2024.csv
timestamp,joint_0,joint_1,joint_2,joint_3,joint_4,joint_5,joint_6,joint_7,joint_8,joint_9,joint_10,joint_11,joint_12,joint_13,joint_14,joint_15,joint_16,joint_17,joint_18,joint_19,joint_20,joint_21,joint_22,joint_23,joint_24,joint_25,joint_26,joint_27,joint_28,joint_29,joint_30,joint_31,joint_32,joint_33,joint_34,joint_35,joint_36,joint_37,joint_38,joint_39,joint_40,joint_41,joint_42,joint_43,joint_44,joint_45,joint_46,joint_47,joint_48,joint_49,joint_50,joint_51,joint_52,joint_53,joint_54,joint_55,joint_56,joint_57,joint_58,joint_59,mfcc_1,mfcc_2,mfcc_3,mfcc_4,mfcc_5,mfcc_6,mfcc_7,mfcc_8,mfcc_9,mfcc_10,mfcc_11,mfcc_12,mfcc_13,pitch_mean,pitch_std,accel_x,accel_y,accel_z,gyro_x,gyro_y,gyro_z,heart_rate,skin_temp,activity_level,speech_detected,proximity_peers,play_behavior
2024-01-01 09:00:00,-0.96,0.17,0.33,-0.91,-0.66,-0.43,0.58,0.24,-0.89,0.31,-0.98,-0.22,-0.46,0.7,0.32,0.73,-0.96,0.73,0.3,-0.54,-0.24,0.95,-0.8,-0.37,0.73,0.06,-0.63,0.0,-0.08,0.85,-0.96,-0.51,0.06,-0.33,-0.21,-0.69,-0.31,-0.3,0.25,-0.53,0.96,0.0,0.62,0.25,0.76,0.78,0.63,-0.94,0.11,-0.44,-0.7,0.79,0.31,-0.82,-0.24,0.92,0.22,0.25,-0.55,-0.52,2.41,0.13,-1.29,-0.33,0.76,1.16,-0.31,-0.12,0.56,-0.94,0.35,0.29,0.53,113.6,19.56,-0.04,-1.56,0.23,-0.88,1.73,1.75,128,36.82,0.45,0,1.11,1
2024-01-01 09:00:01,0.16,0.37,-0.6,-0.72,0.38,0.8,0.82,-0.14,0.82,0.54,0.31,0.13,-0.68,-0.86,0.07,0.44,-0.63,0.68,-0.71,-0.94,-0.36,0.95,0.92,-0.39,0.49,0.64,0.27,0.48,-0.7,-0.62,-0.74,-0.95,0.97,0.23,0.21,0.22,0.19,-0.54,-0.95,-0.84,0.56,-0.73,0.69,-0.06,0.3,-0.63,-0.23,-0.05,-0.67,-0.55,-0.18,0.94,0.85,0.9,-0.55,0.34,-0.59,-0.59,-0.65,0.91,-1.14,-0.86,-2.31,0.74,-0.57,0.27,-0.54,-1.6,0.21,1.29,-0.03,-1.03,-0.15,176.64,14.26,0.51,-0.2,-1.1,2.02,-1.51,2.27,114,35.97,0.46,0,2.2,0
2024-01-01 09:00:02,0.22,0.65,0.44,-0.21,0.88,0.14,0.07,0.28,0.41,-0.92,-0.78,-0.09,0.76,0.76,-0.51,0.08,0.97,-0.92,-0.23,0.53,0.93,-0.62,-0.12,0.77,0.55,-0.43,-0.67,-0.41,0.84,0.38,0.81,-0.07,0.29,-0.82,0.0,-0.64,0.17,0.79,0.09,-0.21,-0.35,-0.95,-0.09,0.79,0.79,0.77,-0.82,-0.35,0.3,0.42,-0.67,0.47,-0.82,0.41,0.27,-0.83,0.41,0.45,0.95,0.22,-0.09,0.9,0.22,-0.88,1.33,0.62,-0.1,0.73,-0.14,-2.2,-1.71,-0.02,-0.32,115.18,13.26,-0.09,-0.34,-1.12,-1.38,-0.85,0.75,72,37.3,0.91,0,0.89,1
2024-01-01 09:00:03,-0.64,0.42,-0.16,-0.38,0.54,-0.11,0.25,-0.76,-0.74,-0.59,0.25,-0.49,-0.08,0.71,0.09,-0.99,0.77,-0.52,0.18,-0.05,-0.18,-0.84,0.2,-0.51,0.09,0.24,0.12,0.65,-0.9,-0.7,0.31,-0.93,0.71,0.33,0.68,-0.4,0.84,-0.9,-0.17,-0.64,0.34,0.22,0.38,0.19,0.57,-0.65,-0.09,0.16,0.86,-0.81,-0.4,-0.26,-0.24,-0.86,-0.15,0.1,-0.41,-0.73,0.39,-0.45,-0.82,1.04,-1.04,1.19,-0.52,-0.31,-0.3,0.58,0.25,0.14,-0.08,-0.57,1.1,195.95,12.87,0.09,0.57,0.2,-0.42,2.4,1.23,114,35.63,0.06,0,2.47,4
2024-01-01 09:00:04,0.87,0.97,-0.43,0.22,-0.37,0.05,0.99,-0.29,-0.74,0.13,0.04,0.26,-0.01,-0.64,0.22,0.42,0.96,-1.0,-0.95,0.25,-0.76,0.7,0.6,1.0,-0.17,-0.33,0.12,0.28,-0.98,-0.6,-0.44,0.58,-0.38,0.01,-0.35,-0.99,0.37,-0.32,0.45,0.23,-0.94,-0.65,-0.34,-0.32,0.34,0.83,0.59,0.29,-0.04,0.25,0.78,0.07,-0.33,0.57,-0.17,0.49,0.67,-0.4,0.45,-0.37,-0.54,2.05,0.93,-1.09,0.88,0.42,0.17,1.01,0.34,-2.01,-1.35,-0.86,2.0,197.89,8.12,0.65,0.54,0.11,-0.92,-1.45,1.0,113,36.0,0.92,1,0.42,1
2024-01-01 09:00:05,-0.44,-0.94,0.97,0.25,0.68,0.14,-0.22,0.19,0.73,0.5,0.41,-0.37,-0.94,-0.17,-0.01,-0.52,-0.1,0.9,-0.57,-0.4,-0.78,0.57,0.56,0.83,-0.11,-0.95,-0.03,0.0,-0.62,0.85,0.46,0.05,0.55,-0.71,0.74,0.64,0.88,0.35,-0.73,0.45,-0.08,0.43,0.04,-0.99,0.86,0.37,0.19,-0.83,-0.07,-0.91,0.04,0.32,-0.38,0.16,-0.38,0.78,-0.36,-0.61,-0.45,-0.36,1.66,0.68,-0.49,-0.41,0.69,-0.12,-0.16,-0.54,-0.66,-0.12,-1.58,0.62,-1.87,177.05,6.76,1.07,-0.53,-0.12,0.56,-0.29,-0.74,79,35.47,0.11,0,1.11,2
2024-01-01 09:00:06,0.1,-0.46,0.89,0.61,0.15,-0.66,-0.38,0.78,0.08,-0.9,-0.94,0.81,-0.9,-0.23,-0.83,-0.22,0.41,0.78,0.26,0.38,-0.11,-0.29,-0.34,-0.6,0.52,0.62,-0.84,0.85,0.53,0.14,-0.81,0.6,0.4,-0.81,-0.38,0.29,0.53,-0.06,0.89,-0.71,0.79,-0.48,-0.27,-0.63,0.83,-0.34,0.72,-0.35,-0.02,-0.87,-0.77,-0.04,0.69,-0.44,-0.3,0.15,0.02,-0.19,0.43,-0.79,0.29,2.2,0.79,-0.76,-0.35,-0.48,-1.03,0.6,-0.33,0.32,-2.61,0.69,-0.59,202.35,6.06,-1.01,-1.34,-0.92,-0.43,0.89,-0.44,89,36.6,0.4,1,1.27,1
2024-01-01 09:00:07,0.1,0.95,-0.23,-0.32,0.63,0.18,0.57,-0.13,0.57,0.09,-0.53,0.33,-0.84,0.86,0.15,-0.03,0.18,-0.07,0.11,0.64,-0.65,0.91,-0.86,-0.78,0.63,0.54,-0.24,-0.01,0.32,-0.82,0.63,0.77,0.81,0.27,-1.0,-0.71,-0.7,0.06,-0.22,0.16,-0.61,0.36,-0.37,0.14,0.83,-0.39,0.89,-0.13,0.97,-0.31,-0.82,-0.98,0.97,-0.19,-0.74,-0.41,-0.26,0.1,-0.89,0.41,0.98,0.29,1.82,-0.5,0.41,1.25,0.63,-0.17,-0.49,-1.94,-0.24,-0.92,-0.54,260.57,10.39,0.05,-1.56,-0.99,0.39,-1.27,-0.05,125,35.85,0.03,1,3.54,3
2024-01-01 09:00:08,0.25,0.42,-0.19,-0.13,-0.58,-0.65,-0.72,0.11,0.69,-0.28,-0.17,-0.42,0.75,-0.75,-0.98,0.3,-0.71,0.77,0.32,0.95,-0.73,-0.73,0.61,0.72,0.79,0.39,0.86,0.25,-0.09,-0.15,0.64,-0.23,-0.55,-0.15,-0.99,-0.0,0.46,0.42,-0.46,0.85,0.15,-0.93,-0.92,-0.03,-0.26,0.16,0.92,-0.84,0.46,0.05,0.72,0.5,-0.44,0.03,0.05,0.22,-0.51,0.26,0.33,0.34,-1.4,0.53,0.66,1.23,1.25,0.27,-1.76,0.0,0.46,0.12,1.66,1.3,0.03,230.5,13.09,0.75,-1.47,0.19,-1.26,-0.18,-0.68,107,35.94,0.05,1,2.72,0
2024-01-01 09:00:09,-0.06,0.03,-0.06,0.47,-0.16,0.92,0.6,-0.42,-0.93,0.85,0.5,0.45,0.13,-0.88,-0.05,-0.66,-0.9,0.98,0.62,0.25,-0.43,-0.83,0.01,0.7,-0.44,-0.73,-0.44,0.72,-0.97,-0.78,-0.65,0.18,-0.7,-0.11,0.62,-0.48,0.4,-0.03,0.6,0.72,-0.31,-0.83,-0.71,0.87,-0.69,-0.01,0.99,0.54,-0.52,-0.12,0.28,-0.58,0.47,-0.31,0.28,0.51,-0.77,-0.66,-0.2,-0.4,-0.65,-0.81,-0.4,-0.57,0.63,-0.26,-0.05,0.29,0.29,-1.07,-0.26,0.24,-0.88,244.15,16.29,-0.99,-1.17,0.2,-0.29,-0.15,-1.78,104,35.7,0.68,1,2.43,1
2024-01-01 09:00:10,0.06,-0.13,-0.42,0.59,-0.24,-0.37,0.06,0.91,-0.81,0.06,-0.29,0.69,0.22,0.3,-0.45,-0.46,0.6,-0.49,0.17,-0.08,0.35,-0.52,0.34,0.54,0.04,0.36,0.99,-0.37,-0.98,-0.98,-0.86,-0.18,0.05,0.37,-0.3,0.45,-0.5,-0.93,0.24,-0.89,0.19,0.79,-0.57,0.2,-0.76,0.92,-0.83,0.21,-0.25,0.53,0.3,0.61,-0.63,-0.78,-0.63,-0.41,0.32,-0.85,-0.09,0.99,0.07,0.12,0.26,1.44,-0.76,0.49,0.33,0.46,-0.31,0.76,-0.73,-0.47,-0.19,249.26,15.38,-0.23,0.37,0.26,0.27,1.32,-0.21,112,37.31,0.32,0,3.93,2
2024-01-01 09:00:11,0.55,-0.23,-0.33,-0.88,0.91,-0.47,-0.12,-0.02,0.86,0.22,-0.64,-0.02,-0.71,0.54,-0.56,0.29,0.83,0.43,-0.79,-0.85,0.14,-0.5,-0.11,0.79,-0.7,0.28,0.87,0.33,-0.47,0.4,0.81,0.15,0.03,0.88,-0.02,-0.13,0.69,0.56,0.57,0.08,-0.99,0.91,0.64,-0.04,0.13,0.87,-0.28,0.36,-0.2,0.26,0.92,-0.82,0.07,0.92,-0.84,-0.08,0.53,0.3,-0.65,-0.92,1.06,-1.06,-0.13,-0.07,-1.31,0.05,0.12,0.6,0.48,-1.28,1.2,-0.46,-0.6,164.52,7.87,0.49,0.85,-0.47,-0.04,0.91,-0.93,114,36.17,0.11,1,2.48,3
2024-01-01 09:00:12,0.47,-0.72,-0.61,0.44,0.19,-0.02,-0.87,0.08,-0.38,0.07,0.67,-0.1,0.99,-0.93,-0.89,0.58,-0.91,-0.76,0.61,0.33,-0.08,0.36,0.75,-0.7,0.16,0.85,-0.93,-0.72,0.31,-0.06,0.84,-0.91,0.4,-0.74,-0.66,-0.9,-0.39,0.59,-0.09,-0.66,0.18,0.64,-0.79,-0.01,0.6,-0.56,0.61,-0.15,0.62,0.96,0.36,-0.35,0.95,0.15,-0.73,0.67,0.59,0.53,0.19,-0.33,-2.8,0.54,0.92,-1.59,-0.02,-0.5,0.13,-2.07,-1.27,0.45,-0.13,1.5,0.59,106.56,7.12,-0.96,0.72,1.71,-0.07,0.4,0.83,96,35.5,0.37,0,2.25,4
2024-01-01 09:00:13,-0.92,-0.8,0.69,0.22,0.56,-0.97,-0.03,-0.99,-0.64,-0.82,0.3,0.77,-0.17,0.61,0.55,0.38,-0.59,0.28,0.05,-0.18,0.88,0.22,-0.92,-0.64,-0.0,0.9,0.25,0.57,-0.3,-0.99,-0.53,-0.76,0.06,-0.81,-0.28,0.52,0.08,-0.56,0.54,0.32,-0.45,-0.61,0.59,0.37,0.94,-0.05,-0.65,0.34,-0.91,0.29,-0.43,-0.13,-0.33,0.61,0.52,-0.91,0.48,0.85,-0.65,0.57,-0.17,-2.12,0.56,0.8,1.46,-1.1,-1.05,-0.69,-0.17,0.54,-1.12,0.95,0.9,186.71,6.74,0.93,-0.31,-2.24,1.6,-0.59,0.72,127,35.71,0.44,1,2.15,2
2024-01-01 09:00:14,-0.54,-0.78,-0.54,-0.53,-0.17,-0.6,0.78,-0.85,0.17,-0.89,-0.13,-0.57,0.22,-0.64,-0.25,-0.08,-0.61,-0.28,-0.46,-0.33,-0.94,0.14,-0.44,-0.78,-0.07,-0.16,0.52,-0.56,-0.41,-0.69,0.59,0.91,0.81,0.16,0.11,-0.54,-0.18,0.04,0.72,-0.57,-0.05,-0.07,-0.97,-0.14,0.75,-0.5,-0.13,-0.56,0.85,0.89,0.83,0.8,-0.16,-0.91,0.98,0.47,0.01,-0.15,-0.21,0.62,0.12,1.13,-0.05,0.07,0.18,0.42,-1.24,1.88,-0.07,0.58,1.52,-0.01,-1.0,233.26,6.47,-1.03,-0.45,0.33,0.44,1.13,-1.54,101,35.72,0.56,0,3.5,3
2024-01-01 09:00:15,0.9,-0.73,-0.41,0.3,-0.82,-0.04,-0.39,0.41,0.72,0.49,-0.95,-0.09,0.54,0.75,-0.19,0.58,-0.26,-0.07,0.27,0.72,-0.86,0.79,-0.33,-0.93,-0.15,-0.46,0.89,0.08,0.59,0.58,-0.84,0.76,0.47,-0.89,0.89,0.35,0.78,-0.78,-0.27,0.24,-0.27,-0.65,0.12,-0.87,0.42,-0.59,0.96,-0.52,-0.77,-0.04,0.88,0.16,0.92,-0.58,0.49,-0.55,-0.29,-0.47,0.36,-0.45,0.22,0.62,0.58,-2.42,-0.37,0.81,-0.81,-1.19,0.56,0.3,0.23,-0.65,-1.31,93.94,10.18,0.95,3.34,-1.62,1.02,-0.17,0.32,101,36.5,0.83,1,3.58,4
2024-01-01 09:00:16,0.8,-0.1,-0.26,0.35,0.39,0.96,0.77,-0.62,0.77,-0.83,-0.22,-0.64,0.92,-0.85,-0.67,-0.78,-0.7,-0.7,-0.59,0.9,-0.95,-0.17,0.36,0.86,-0.05,-0.16,0.48,-0.96,-0.62,-0.96,0.6,0.67,0.04,-0.33,0.16,0.31,0.57,-0.03,0.33,0.06,0.1,-0.08,0.13,0.8,-0.39,0.58,-0.55,-0.26,-0.42,0.69,-0.7,-0.43,0.91,0.24,-0.68,0.07,-0.64,-0.65,0.42,0.81,-0.06,2.2,-0.8,-0.6,0.08,0.57,1.33,0.49,0.23,-0.44,0.51,-0.71,0.2,254.78,7.42,-0.22,-0.98,1.56,-0.98,-0.39,-1.58,77,35.12,0.32,0,2.26,2
2024-01-01 09:00:17,-0.63,0.12,-0.93,-0.37,-0.31,-0.25,0.08,-0.67,-0.4,0.84,-0.19,-0.0,-0.71,-0.08,-0.36,-0.99,0.48,0.95,-0.34,0.41,-0.05,-0.42,0.89,0.96,0.15,-0.71,0.13,0.81,-0.12,0.38,0.46,0.8,-0.72,0.1,-0.38,-0.2,0.68,-0.11,-0.82,-0.89,0.28,0.17,-0.56,0.87,-0.44,-0.95,0.08,-0.11,0.34,-0.83,0.02,-0.61,-0.36,0.21,0.89,0.82,-0.28,-0.7,0.71,-0.26,-0.17,0.43,-0.91,-1.82,-0.38,-0.16,-0.24,1.59,0.33,0.26,0.33,0.32,-0.44,162.02,9.27,-0.94,2.47,-0.15,0.02,0.05,-0.76,92,35.92,0.45,0,1.16,3
2024-01-01 09:00:18,0.48,-0.17,-0.11,-0.67,0.46,0.8,0.46,-0.17,0.67,0.2,-0.71,-0.39,0.98,0.05,-0.33,0.87,0.18,-0.25,-0.99,0.28,-0.45,-0.65,-0.08,0.14,0.83,-0.6,0.66,-0.42,-0.02,0.65,-0.4,0.17,-0.01,0.48,-0.55,0.58,-0.69,-0.4,0.28,0.27,-0.75,0.33,-0.42,-0.64,0.81,0.29,-0.94,0.53,-0.01,0.94,0.2,-0.28,-0.04,-0.13,-0.48,0.37,0.95,0.64,-0.25,0.47,0.18,-1.28,0.72,-0.26,1.13,0.52,0.39,-0.79,0.07,0.76,0.12,-1.36,0.99,83.86,8.89,0.76,-1.5,0.13,0.82,-0.6,-1.33,107,35.18,0.32,0,1.85,0
2024-01-01 09:00:19,-0.45,-0.16,0.82,-0.29,-0.42,0.06,0.87,0.03,0.53,-0.63,-0.81,0.51,0.09,0.74,0.65,0.37,-0.4,0.37,0.38,-0.81,0.16,0.65,-0.97,0.04,-0.25,-0.03,-0.32,0.82,-0.8,-0.69,-0.56,-0.62,0.79,0.23,0.66,0.05,0.06,0.1,0.51,-0.77,-0.08,-0.85,0.64,0.85,-0.04,-0.38,-0.27,0.63,0.78,0.2,0.53,-0.32,0.42,-0.94,0.63,-0.56,0.71,-0.72,-0.55,-0.75,-1.07,-0.11,0.93,-1.09,-1.08,-0.3,0.69,1.75,0.09,-0.67,-0.8,1.37,-1.26,108.65,6.18,0.19,1.32,-0.16,-1.08,0.53,0.1,114,37.29,0.11,0,3.9,3
2024-01-01 09:00:20,-0.91,-0.78,0.59,0.03,-0.88,-0.76,-0.49,-0.87,0.34,0.51,0.56,0.84,-0.59,0.8,-0.63,-0.3,-0.82,0.69,0.88,0.9,-0.3,-0.68,0.0,0.46,-0.52,0.14,-0.8,0.16,-0.97,-0.57,-0.62,-0.44,0.8,0.07,0.95,-0.8,-0.57,0.01,0.42,-0.27,0.18,-0.12,0.92,-0.64,-0.29,-0.24,-0.57,-0.54,-0.77,0.97,-0.75,-0.78,-0.73,0.52,0.41,0.11,-0.92,-0.34,-0.77,-0.43,0.47,0.58,0.52,0.3,0.68,1.35,-0.78,-0.27,0.79,-0.07,-1.26,0.33,-0.49,212.09,9.68,2.12,0.99,1.16,0.04,0.31,-0.34,123,36.33,0.55,1,4.93,3
2024-01-01 09:00:21,-0.62,-0.86,0.68,-0.05,0.36,-0.64,1.0,-0.02,-0.79,-0.12,0.32,-0.83,-0.71,-0.2,0.18,-0.8,0.85,0.96,-0.87,0.95,-0.32,0.19,0.98,-0.75,0.68,0.45,-0.44,0.43,0.16,-0.45,0.58,0.29,-0.2,-0.05,0.21,-0.19,-0.03,-0.44,0.54,-0.78,-0.5,-0.01,0.26,-0.73,-0.8,-0.89,-0.86,0.36,0.94,-0.23,0.36,-0.69,0.24,-0.81,-0.85,0.5,0.54,0.59,-0.6,0.32,-0.84,-0.91,2.14,0.4,-1.32,0.96,2.62,-1.54,0.6,-1.12,1.16,-2.14,0.08,187.86,8.92,0.44,-1.38,0.44,-0.46,1.72,-1.42,91,37.43,0.54,0,4.77,0
2024-01-01 09:00:22,0.98,0.76,-0.76,-0.1,0.71,-0.11,-0.93,-0.65,0.32,0.56,0.77,-0.67,-0.14,-0.38,-0.22,0.53,0.14,-0.02,0.11,0.08,-0.06,0.12,-0.69,-0.89,-0.47,0.18,-0.24,0.35,0.53,-0.43,-0.88,0.18,-0.74,-0.27,0.62,0.17,0.53,0.25,-0.24,-0.14,0.98,-0.18,-0.89,-0.51,-0.53,-0.38,-0.83,0.38,0.74,-0.77,-0.66,0.08,-0.93,0.32,-0.16,0.03,-0.16,-0.96,-0.06,-0.96,0.91,-0.1,1.29,1.32,-0.25,-0.04,0.91,0.52,-0.12,-0.83,0.37,-1.11,0.65,149.63,13.56,1.11,-0.83,-0.42,-0.63,1.05,0.05,90,36.72,0.81,0,3.49,1
2024-01-01 09:00:23,-0.33,0.01,0.53,-0.32,0.23,-0.27,-0.13,-0.01,0.69,0.57,0.68,0.07,-0.43,-0.9,0.99,-0.2,-0.55,0.49,-0.82,0.69,-0.81,-0.33,-0.87,0.6,-0.05,-0.58,0.59,0.3,-0.4,0.61,-0.13,0.08,-0.6,-0.2,0.25,-0.09,0.53,-0.64,-0.96,0.41,0.73,0.15,-0.57,0.92,0.48,-0.07,0.87,0.07,0.23,0.54,-0.13,0.13,0.25,0.04,-0.27,-0.7,-0.7,0.37,-0.4,-0.13,-0.37,0.65,-0.48,-0.2,-1.11,0.84,-1.09,1.43,0.24,-0.16,-0.01,1.71,-1.35,150.1,17.45,-1.27,0.96,-0.92,-0.74,-0.44,1.13,74,36.9,0.85,1,4.14,1
2024-01-01 09:00:24,-0.49,0.2,-0.19,-0.77,-0.62,-0.51,0.65,-0.07,0.12,-0.13,0.29,-0.93,-0.68,-0.73,-0.48,0.61,0.32,-0.65,0.71,0.93,-0.03,-0.96,0.72,-0.83,0.2,0.73,0.8,-0.19,-0.27,0.31,-0.82,0.89,0.45,-0.72,-0.78,0.47,0.87,0.04,0.66,0.9,0.86,-0.5,0.77,-0.52,-0.76,0.61,-0.34,0.17,-0.22,0.5,-0.53,-0.15,-0.71,-0.65,0.94,-0.12,-0.49,0.18,-0.02,-0.25,0.81,-0.14,0.4,0.38,-1.0,-0.93,-2.04,1.49,-0.67,0.01,0.54,-0.97,-0.85,288.72,9.75,-0.92,-2.9,-0.07,2.34,-0.53,-0.5,97,36.42,0.25,1,4.41,1
2024-01-01 09:00:25,-0.27,0.43,0.64,-0.96,0.93,0.21,0.68,0.32,0.88,0.38,0.58,-0.52,0.11,-0.38,0.92,-0.27,0.62,-0.76,0.73,0.72,-0.22,0.82,-0.21,0.96,-0.49,-0.82,0.65,-0.53,-0.58,0.78,0.83,0.26,0.76,0.53,-0.19,-0.93,0.73,0.65,0.88,-0.06,-0.17,0.68,0.43,0.75,0.64,0.65,0.4,0.01,-0.3,0.2,0.63,0.48,-0.09,-0.95,-0.9,0.28,0.26,0.58,-0.73,-0.2,-0.37,0.31,0.88,-0.83,0.46,-0.09,0.3,0.45,-0.97,-0.53,0.46,-0.14,0.79,218.23,9.71,-0.22,1.01,-1.96,0.32,-1.29,1.12,75,35.33,0.25,0,4.25,3
2024-01-01 09:00:26,0.59,-0.36,-0.04,0.47,-0.48,0.37,0.65,0.6,-0.6,-0.17,-0.64,0.75,0.89,0.77,-0.55,0.9,0.85,0.29,0.25,0.81,0.95,-0.6,0.4,-0.66,-0.2,-0.14,-0.48,-0.82,-0.26,0.89,-0.77,0.44,-0.13,0.84,-0.09,0.35,-0.76,0.43,-0.62,0.72,0.56,-0.42,-0.01,-0.74,0.71,0.2,0.99,-0.43,0.35,-0.16,-0.18,-0.71,-0.42,-0.48,0.24,0.81,-0.26,0.37,-0.08,-0.98,-0.15,-0.34,-0.83,0.66,0.57,-0.28,0.67,0.22,0.09,0.78,1.81,0.28,0.28,109.31,9.85,0.92,-0.95,-0.18,-0.39,0.3,0.22,114,36.19,0.21,1,3.57,4
2024-01-01 09:00:27,-0.49,-0.81,-0.88,-0.33,-0.53,0.82,0.99,0.88,0.93,0.2,0.5,-0.91,-0.49,0.24,-0.39,-0.21,-0.26,0.94,0.12,0.16,-0.48,0.01,0.86,0.76,-0.74,-0.37,0.06,-0.72,-0.77,-0.91,-0.74,0.74,0.67,0.5,0.85,-0.43,0.75,0.23,0.52,-0.47,-0.37,0.79,-0.37,0.99,0.53,-0.7,0.71,0.31,0.6,-0.89,-0.7,-0.54,-0.93,-0.48,0.41,-0.13,0.99,0.85,-0.92,-0.29,1.76,1.5,-1.51,0.36,0.71,0.08,-0.52,1.38,0.33,-1.04,0.98,0.47,-0.64,235.99,12.28,-0.76,-0.8,1.18,0.59,0.96,0.2,101,35.34,0.72,0,0.71,0
2024-01-01 09:00:28,-0.59,-0.43,0.67,0.5,0.65,0.13,0.33,-0.58,1.0,-0.99,0.53,-0.64,0.84,-0.51,-0.0,-0.81,-0.34,-0.43,0.96,-0.76,-0.25,0.86,-0.79,-0.35,-0.94,-0.08,0.42,-0.04,0.26,-0.46,0.32,-0.34,-0.91,0.24,-0.09,0.89,1.0,0.81,0.59,-0.74,0.73,0.6,-0.43,0.6,0.49,0.09,0.2,-0.81,-0.49,-0.52,0.54,-0.2,-0.96,-0.58,-0.22,-0.2,0.29,0.91,-0.69,-0.4,-0.68,-0.79,1.07,0.45,-0.27,0.02,1.0,0.56,-0.09,-0.05,-0.59,0.02,-0.29,256.24,16.04,-0.05,-0.54,-1.34,0.95,0.57,-0.27,128,35.93,0.68,0,1.86,0
2024-01-01 09:00:29,0.66,0.03,-0.02,0.77,-0.05,0.13,-0.15,0.51,0.62,0.23,-0.13,-0.15,-0.92,-0.32,-0.07,-0.55,0.37,-0.69,-0.01,0.26,0.05,-0.42,-0.13,0.81,-0.04,-0.7,-0.74,0.81,0.68,0.05,-0.41,-0.9,-0.85,-0.91,-0.78,-0.15,-0.81,0.32,0.14,-0.49,-0.49,-0.84,0.01,-0.77,0.32,-0.64,-0.64,-0.21,-0.83,0.75,-0.4,0.17,-0.09,0.34,0.25,-0.47,0.93,0.74,-0.63,-0.63,-0.32,-1.39,1.07,1.25,-0.09,0.33,-0.99,0.09,-0.69,-0.68,-0.29,-0.42,-0.13,244.35,14.06,1.06,-2.11,-0.53,0.63,0.19,-0.78,125,37.02,0.43,0,0.13,0
2024-01-01 09:00:30,-0.97,0.31,-0.08,-0.19,0.32,0.49,0.45,-0.39,0.63,0.23,0.38,0.93,0.35,0.61,-0.82,-0.73,-0.62,0.63,0.39,-0.62,-0.95,-0.04,-0.71,-0.52,0.68,0.72,0.08,-0.83,0.54,-0.7,-0.16,-0.77,0.8,0.48,-0.11,-0.03,-0.96,-0.1,-0.51,-0.41,0.66,-0.22,-0.33,-0.79,0.7,-0.14,-0.17,-0.01,0.16,0.46,1.0,-0.93,-0.2,0.03,0.45,0.87,0.81,0.74,-0.54,-0.88,2.11,2.7,-0.02,-0.99,-0.25,-1.13,0.4,0.58,0.99,0.4,0.23,-1.01,-1.22,84.18,13.65,-2.02,0.08,0.86,1.15,0.84,-0.37,105,35.19,0.89,1,4.46,0
2024-01-01 09:00:31,-0.01,0.88,-0.31,0.4,-0.96,-0.42,-0.62,-0.31,-0.54,-0.56,0.82,-0.32,0.2,0.68,0.31,-0.74,-0.41,0.42,0.92,0.67,0.35,0.47,0.59,0.6,0.69,0.24,-0.44,0.5,0.33,-0.74,-0.6,0.21,-0.8,-0.17,0.99,-0.39,-0.58,-0.91,-0.96,0.76,-0.29,-0.68,0.66,0.79,-0.94,-0.87,-0.14,0.24,-0.76,-0.55,-0.48,-0.32,-0.29,-0.91,0.76,-0.47,-0.7,0.38,0.03,0.34,1.86,-0.95,-1.0,0.77,1.41,1.79,1.0,0.73,0.81,-0.28,-0.8,0.27,-1.7,235.41,18.9,-0.31,-0.53,0.58,0.22,1.49,0.82,98,37.4,0.96,0,4.88,4
2024-01-01 09:00:32,0.22,0.72,-0.8,0.12,0.01,-0.67,-0.76,-0.59,-0.28,0.46,0.42,0.52,-0.0,0.74,-0.69,-0.27,0.64,-0.75,-0.6,0.94,0.54,-0.99,0.67,-0.05,-0.43,-0.66,-0.47,0.43,-0.17,0.26,-0.51,0.51,0.06,0.57,-0.72,-0.14,0.84,0.8,0.9,0.03,0.36,0.89,-0.11,0.54,0.44,0.03,-0.86,-0.32,-0.2,0.54,-0.13,-0.21,-0.93,0.85,-0.7,0.15,0.96,0.96,0.6,0.75,-0.64,0.67,-1.73,0.73,-0.75,-0.61,1.34,0.39,-0.19,1.02,1.47,-1.0,-0.71,293.99,11.29,0.81,0.31,-1.86,1.78,-0.48,-1.0,126,37.04,0.55,1,3.64,2
2024-01-01 09:00:33,0.82,-0.98,-0.44,0.06,0.84,0.4,-0.11,-0.59,0.09,0.58,0.3,0.39,0.78,0.56,-0.19,-0.61,-0.4,-0.93,-0.33,0.45,0.48,-0.75,0.98,-0.43,-0.81,0.1,0.04,0.51,-0.68,-0.94,0.59,0.19,-0.52,0.55,0.45,0.97,-0.78,-0.88,-0.25,0.25,-0.29,-0.9,0.3,-0.75,-0.4,0.47,-0.09,0.97,0.61,0.98,0.13,0.79,0.26,0.07,0.19,-0.3,-0.43,0.57,0.43,0.34,0.01,0.9,1.13,0.06,2.54,2.82,0.45,-0.06,-0.34,-0.15,1.5,0.34,0.87,237.16,12.79,0.69,0.61,1.09,0.83,0.48,1.84,85,35.32,0.52,0,4.13,2
2024-01-01 09:00:34,-0.09,-0.71,-0.15,-0.18,-0.82,-0.15,-0.74,-0.57,-0.84,0.35,-0.19,0.12,0.56,0.74,0.17,0.27,0.99,0.38,0.9,0.46,-0.17,-0.67,0.01,-0.03,-0.08,0.94,0.03,0.06,0.39,-0.09,-0.93,-0.69,0.12,0.84,-0.76,0.7,-0.78,-0.26,-0.42,0.05,-0.76,-0.39,-0.25,-0.41,-0.94,-0.71,0.57,-0.16,0.87,-0.39,-0.43,-0.63,0.48,-1.0,0.1,-0.86,-0.91,-0.04,-0.38,-0.1,-1.32,0.28,-0.53,0.92,-1.63,0.23,0.48,1.22,-0.42,2.79,-0.59,-1.14,0.61,154.32,10.66,-0.13,1.84,-1.59,0.04,0.82,-0.67,123,37.16,0.61,0,2.57,3
2024-01-01 09:00:35,0.52,0.33,-0.7,0.46,-0.82,0.25,0.25,-0.23,0.8,-0.32,-0.91,0.34,-0.11,-0.45,-0.82,-0.67,-0.95,0.26,0.54,-0.38,0.29,0.29,-0.83,0.91,0.08,0.52,0.91,0.04,0.5,0.01,-0.96,0.32,0.06,0.92,-0.45,-0.59,0.66,0.68,0.16,-0.83,0.07,-0.36,0.18,-0.02,0.87,-0.32,-0.64,-0.95,0.06,-0.24,-0.82,0.96,0.08,-0.43,-0.63,0.54,-0.69,0.9,0.36,-0.88,-1.39,1.45,-0.84,1.04,-0.92,-0.32,0.76,0.35,-0.93,0.53,-2.17,-1.2,1.75,291.45,7.72,-0.17,0.72,0.69,-0.34,0.12,-1.17,115,35.18,0.39,1,0.8,2
2024-01-01 09:00:36,-0.48,0.88,0.8,-0.9,-0.52,0.19,-0.53,0.02,0.01,0.9,-0.46,-0.36,0.11,-0.87,-0.94,0.27,0.83,-0.96,0.11,0.17,-0.8,0.53,0.3,-0.75,0.14,-0.11,0.69,0.0,0.57,-0.72,0.08,-0.66,-0.51,0.91,0.92,0.11,-0.92,0.63,0.92,0.24,0.31,-0.67,-0.88,0.84,-0.45,-0.5,0.36,1.0,0.68,-0.57,0.68,-0.44,-0.68,0.07,-0.86,-0.82,0.4,0.66,0.45,1.0,0.13,-0.49,2.09,-0.7,0.51,-0.27,0.81,-1.36,-0.13,0.59,0.24,0.5,-0.83,273.22,8.16,-0.35,-0.02,0.78,1.4,-1.86,-0.32,102,37.87,0.32,1,3.21,3
2024-01-01 09:00:37,-0.45,0.32,-0.36,-0.58,0.92,-0.34,0.83,-0.73,0.84,0.22,-0.99,-0.98,-0.65,0.11,0.39,-0.02,-0.21,-0.84,0.75,0.3,0.08,0.79,0.63,-0.11,-0.75,0.94,-0.25,0.2,-0.23,0.68,0.62,0.97,-0.75,-0.26,-0.61,-0.98,0.49,0.52,0.36,0.42,-0.62,0.63,0.25,0.62,-0.56,0.96,0.93,-0.93,-0.01,0.41,0.21,-0.99,0.97,0.28,-0.78,-0.45,0.0,-0.66,-0.61,0.48,-0.66,-0.77,0.27,0.03,-1.12,-1.17,0.46,-1.09,-0.69,0.92,0.17,1.55,-0.11,227.88,14.04,2.23,-0.18,1.2,-0.84,-0.65,1.69,81,35.2,0.13,0,0.72,4
2024-01-01 09:00:38,0.71,0.76,0.46,-0.45,0.7,-0.95,0.94,0.36,0.23,0.36,0.77,-1.0,-0.15,0.35,0.3,0.71,-0.35,0.69,-0.19,-0.76,0.04,-0.01,0.03,-0.91,0.44,-0.91,0.84,0.06,-0.37,-0.22,-0.33,0.76,0.62,0.98,-0.55,0.38,0.92,0.83,-0.61,-0.34,-0.87,0.25,-0.94,-0.14,-0.95,0.59,0.87,0.68,-0.51,-0.05,0.92,0.67,0.64,0.04,-0.53,-0.85,0.2,-0.12,-0.81,-0.11,-0.7,-0.22,-0.66,1.12,-1.21,1.31,0.24,0.19,-0.06,1.25,-0.22,-0.71,0.52,107.46,19.62,-0.09,1.96,0.91,0.35,1.43,-1.45,128,35.1,0.31,0,3.93,0
2024-01-01 09:00:39,0.84,-0.12,-0.4,0.25,-0.87,0.36,0.12,-0.41,-0.24,-0.81,0.5,-0.53,0.2,0.32,-0.98,-0.23,0.59,0.76,0.24,-0.32,0.88,0.57,-0.09,-0.34,-0.62,-0.79,0.19,-0.86,0.58,-0.61,0.15,0.27,-0.49,-0.16,0.45,-0.11,-0.51,0.59,-0.88,-0.38,-0.13,0.92,0.51,-0.38,0.77,0.55,-0.71,-0.38,-0.31,-0.26,-0.98,0.17,0.36,-0.89,0.01,0.67,0.72,-0.16,-0.61,-0.6,0.56,0.1,-0.2,-0.28,1.11,-1.86,0.47,-1.43,-0.24,-0.05,1.62,-0.53,0.05,279.87,16.78,-1.23,0.51,-1.33,-1.78,-1.51,-0.28,91,35.57,0.48,1,3.04,2
2024-01-01 09:00:40,0.7,0.13,-0.33,-0.4,-0.34,-0.79,0.75,0.82,-0.01,0.84,0.28,0.39,-0.07,-0.57,-0.04,0.54,0.63,0.61,-0.25,-0.2,0.65,-0.99,-0.98,-0.28,0.11,-0.72,-0.12,0.26,0.83,-0.28,0.95,-0.6,-0.43,-0.56,-0.48,-0.65,0.7,-0.51,-0.61,-0.65,-0.48,-0.8,0.66,-0.73,0.31,0.77,-0.32,-0.58,-0.09,-0.26,-0.26,-0.66,0.05,0.6,0.25,-0.13,0.42,-0.76,0.77,-0.74,-0.23,1.13,1.52,1.5,1.15,2.08,0.46,0.47,1.83,-1.11,0.94,-0.05,1.33,121.72,12.99,1.18,-0.16,-1.2,1.35,-0.47,0.12,114,36.12,0.6,0,4.61,4
2024-01-01 09:00:41,0.17,0.71,-0.41,-0.7,-0.51,0.26,-0.44,-0.75,0.02,0.17,-0.02,0.45,0.57,0.58,0.23,-0.67,-0.22,0.76,0.5,-0.25,0.04,-0.64,0.42,0.05,-0.03,0.91,-0.05,0.16,0.28,0.58,0.3,-0.59,0.79,-0.1,-0.53,-0.56,-0.15,-0.25,-0.69,0.68,-0.49,-0.83,0.5,-0.41,0.04,-0.54,-0.92,0.02,-0.33,-0.1,-0.13,-0.26,-0.0,-0.45,-0.95,-0.12,-0.47,-0.85,0.8,-0.41,-1.12,-0.36,1.02,0.39,-0.75,-1.88,0.69,-0.42,0.17,-0.14,-0.43,0.62,-0.87,190.39,13.2,0.15,0.41,1.35,0.05,-1.19,0.67,75,37.36,0.93,0,0.68,2
2024-01-01 09:00:42,-0.92,-0.6,-0.61,-0.34,-0.39,0.63,0.37,-0.45,0.41,1.0,1.0,0.5,0.48,0.82,-0.98,-0.4,0.64,0.57,-0.19,-0.19,0.16,0.31,-0.06,0.03,0.52,-0.7,-0.2,-0.55,0.5,-0.05,0.03,0.57,0.52,0.45,-0.08,0.58,-0.37,-0.62,0.54,0.4,-0.58,-0.1,0.12,-0.25,0.16,-0.74,0.89,-0.98,0.62,0.67,-0.32,-0.16,0.37,-0.19,0.56,0.08,-0.35,-0.95,0.57,0.84,-0.89,-0.67,-0.5,-0.18,1.29,0.65,-1.1,1.51,1.06,0.42,-2.32,-0.84,0.01,113.81,19.29,1.66,1.33,-0.97,-1.68,-0.18,0.14,91,36.7,0.8,1,4.9,1
2024-01-01 09:00:43,0.9,-0.87,-0.23,-0.05,-0.34,0.92,0.28,-0.39,-0.66,0.35,-0.64,0.65,0.21,-0.95,-0.6,0.82,-0.23,-0.59,-0.42,0.05,-0.09,-0.26,-0.98,-0.35,0.82,-0.22,0.98,-0.74,-0.16,0.49,-0.22,0.81,-0.59,0.74,-0.38,0.64,0.33,-0.68,0.15,-0.38,-0.59,0.43,-0.08,-0.6,0.98,-0.11,0.65,0.21,-0.51,-0.34,0.14,-0.02,-0.07,-0.92,-0.82,0.29,0.84,-0.31,0.69,0.58,-1.24,-0.87,2.12,-0.37,-0.3,2.83,-0.34,-1.01,-0.71,0.29,-0.47,-0.13,-0.04,166.04,17.35,3.15,0.71,-0.95,-0.17,0.8,1.08,124,35.53,0.25,1,2.34,1
2024-01-01 09:00:44,0.4,-0.81,0.4,-0.91,0.77,-0.68,0.77,0.08,0.33,-0.87,0.45,0.8,0.82,-0.18,0.52,-0.76,-0.26,0.51,0.01,0.56,-0.18,-0.67,-0.59,-0.91,-0.95,0.28,0.35,-0.08,-0.31,-0.2,-0.61,-0.92,-0.5,0.42,-0.73,0.34,-0.07,-0.08,-0.83,0.31,0.43,-0.12,-0.06,-0.44,-0.68,0.68,0.21,-0.65,-0.75,0.48,-0.66,0.34,-0.98,-0.45,-0.12,-0.64,0.43,0.79,0.06,-0.12,-1.6,-1.42,0.47,-0.64,-0.78,0.19,0.79,-0.24,-1.94,-0.53,-1.16,0.56,2.05,90.51,14.52,0.29,0.44,0.81,1.35,-0.58,-0.05,103,36.92,0.72,0,2.01,2
2024-01-01 09:00:45,-0.11,0.2,-0.9,-0.25,-0.6,-0.5,0.82,-0.6,-0.97,-0.94,-0.97,0.64,0.36,-0.87,0.92,-0.81,0.67,0.33,0.45,-0.91,0.03,0.63,-0.35,0.25,0.25,0.87,-0.21,-0.14,-0.54,-0.79,-0.35,-0.97,0.31,-0.98,-0.57,-0.56,0.32,-0.44,0.25,-0.91,0.77,-0.18,0.54,-0.0,0.98,0.43,0.58,0.84,0.14,-0.5,-0.81,-0.35,0.26,-0.22,0.85,0.54,-0.73,-0.65,0.52,0.38,0.95,-0.94,-1.51,-0.47,1.26,0.14,-0.47,1.02,0.55,-0.78,-0.19,-1.02,0.14,295.16,15.0,0.64,-2.46,-1.02,1.68,-0.34,1.66,74,36.01,0.61,1,1.97,1
2024-01-01 09:00:46,0.01,0.41,-0.97,-0.96,0.52,-0.75,-0.53,-0.14,-0.51,-0.84,-0.72,-0.0,-0.6,-0.25,0.28,-0.52,0.45,0.98,-0.11,0.75,-0.73,-0.36,0.57,-0.92,0.58,-0.17,0.63,0.5,-0.54,0.47,-0.31,-0.59,-0.89,0.84,0.98,0.6,0.39,-0.56,0.75,0.04,-0.63,0.26,-0.87,-0.02,0.91,-0.9,0.98,0.88,-0.75,-0.65,0.1,0.59,-0.59,0.01,-0.15,-0.07,-0.67,-0.6,-0.15,0.21,-1.28,-0.53,0.22,-0.32,1.27,-0.12,0.71,-1.09,0.26,-0.31,-1.0,0.47,1.36,146.68,13.65,-0.6,0.42,-0.22,0.11,0.84,1.44,110,35.6,0.86,1,0.49,2
2024-01-01 09:00:47,-0.2,-0.66,-0.12,0.01,0.47,0.52,0.64,0.59,-0.96,-0.24,0.71,0.52,0.84,0.19,-0.69,0.45,-0.49,-0.07,-0.09,-0.25,0.21,-0.86,-0.73,-0.06,-0.69,-0.62,-0.97,0.0,0.45,-0.02,0.85,0.88,0.94,-0.25,-0.02,0.28,0.18,-0.18,-0.92,0.84,-0.23,0.13,-0.61,-0.13,-0.49,0.83,0.44,0.02,-0.02,0.38,0.39,0.3,0.85,0.47,-0.52,-0.93,0.63,0.26,0.35,0.39,1.24,-0.75,-1.34,-2.01,0.63,-0.53,1.06,-1.03,0.45,-1.77,0.5,0.39,-1.1,221.97,8.92,0.19,2.07,0.69,2.96,0.15,0.58,99,37.83,0.15,0,3.05,1
2024-01-01 09:00:48,-0.98,0.54,0.29,0.83,-0.2,0.17,0.8,0.04,-0.62,-0.15,0.66,-0.49,-0.4,0.94,0.32,-0.23,-0.38,-0.18,0.75,0.46,-0.82,0.27,0.55,-0.31,-0.71,0.5,0.86,-0.2,-0.38,0.97,0.63,-1.0,-0.86,0.39,0.05,0.31,0.47,-0.66,-0.25,0.41,-0.6,-0.64,0.9,-0.1,0.63,-0.63,-0.88,-0.63,0.52,-0.48,0.8,-0.18,0.25,0.25,0.74,-0.67,-0.41,-0.24,-0.45,-0.32,-0.48,0.25,-0.98,0.91,-0.81,1.67,-1.35,-0.3,-0.25,-1.12,0.23,-0.53,1.4,208.84,12.17,-0.81,0.42,-0.09,-0.21,0.09,0.71,113,37.28,0.01,1,3.78,0
2024-01-01 09:00:49,0.33,0.58,-0.92,-0.58,0.58,-0.25,0.04,0.92,-0.47,-0.03,0.51,0.21,-0.33,0.36,-0.31,-0.37,-0.52,-0.28,-0.2,0.22,0.95,0.75,0.61,-0.99,0.74,-0.2,0.67,0.85,-0.95,-0.75,0.06,0.9,0.5,-0.5,-0.1,0.37,0.74,0.03,0.32,-0.99,0.28,0.88,-0.36,0.27,0.75,0.94,0.47,0.36,-0.53,-0.03,0.48,0.59,-0.3,0.88,0.88,-0.05,0.32,0.4,-0.8,-0.23,-1.89,0.05,-0.83,-0.75,0.24,1.1,1.55,-0.58,-2.85,0.07,-1.82,0.44,-0.9,213.58,15.68,0.34,-0.85,-1.16,-1.14,0.4,-1.32,125,36.56,0.57,0,0.73,0
2024-01-01 09:00:50,-0.4,0.35,0.1,0.75,-0.66,-0.11,-0.77,0.33,-0.52,-0.58,0.51,0.32,-0.82,-0.13,0.43,-0.68,0.86,0.81,0.53,-0.56,-0.48,-0.05,0.8,-0.75,-0.73,0.07,0.45,-0.82,0.38,0.74,0.86,0.53,0.2,0.29,-0.25,0.43,0.47,-0.24,0.28,0.12,0.71,0.62,-0.55,-0.77,-0.82,-0.82,0.48,0.87,0.49,-0.77,-0.26,0.71,0.91,0.15,-1.0,-0.88,0.07,0.69,0.96,-0.36,0.55,1.78,1.67,-1.6,-1.35,0.48,-1.07,0.62,-1.71,-0.07,0.94,-1.55,-0.12,160.31,15.19,-0.13,0.61,-0.67,-1.43,-2.52,1.33,120,35.38,0.66,0,0.62,0
2024-01-01 09:00:51,0.08,-0.08,-0.71,0.89,0.67,-0.0,-0.09,0.2,-0.71,0.33,0.6,0.41,0.2,-0.38,0.98,-0.75,0.99,0.41,-0.04,0.66,-0.01,0.41,-0.25,0.96,-0.33,0.66,-0.58,0.47,0.62,0.4,-0.89,0.73,-0.64,-0.02,-0.22,0.97,0.32,0.7,0.98,0.1,-0.33,0.36,0.98,0.52,-0.22,0.06,-0.43,0.39,-0.61,0.71,-0.21,-0.74,0.5,0.16,0.61,0.7,0.42,-0.08,-0.67,-0.72,0.83,-0.02,-0.05,0.43,0.97,-2.02,-1.78,-1.93,-0.35,0.18,1.01,-2.91,-1.34,233.11,9.37,0.13,0.25,-0.2,-1.13,-0.7,-0.14,79,35.63,0.8,0,3.7,0
2024-01-01 09:00:52,-0.28,0.71,-0.8,0.57,0.72,-0.25,0.97,0.36,-0.66,-0.89,-0.29,-0.05,0.89,-0.77,0.03,-0.32,-0.13,-0.7,0.45,-0.51,-0.76,-0.21,-0.39,0.19,-0.66,0.49,0.55,0.98,0.34,-0.82,-0.07,0.64,-0.24,0.26,-0.11,-0.98,-0.77,-0.76,0.28,0.82,-0.55,0.17,0.97,-0.04,0.39,-0.81,0.19,-0.23,1.0,0.41,-0.4,-0.75,-0.35,0.43,0.72,0.08,-0.19,0.4,-0.21,0.63,-1.72,-0.85,-1.38,0.5,-0.91,-1.31,-0.52,0.75,-0.02,1.1,0.95,-0.75,0.13,252.36,12.95,1.1,-0.48,0.24,-0.9,-0.23,-0.26,74,36.56,0.58,0,3.79,1
2024-01-01 09:00:53,0.93,0.8,-0.64,0.2,-0.64,0.11,0.6,-0.75,-0.74,-0.59,-0.68,0.12,0.7,-0.93,0.96,0.01,-0.27,0.09,-0.15,0.89,-1.0,-0.4,0.89,0.04,0.57,0.32,-0.11,0.15,0.39,0.05,0.97,-0.3,0.08,-0.58,-0.8,0.64,-0.53,-0.62,-0.4,0.67,0.91,0.2,-0.57,-0.28,-0.74,0.24,-0.85,-0.49,-0.24,0.81,-0.2,-0.83,-0.49,-0.15,0.39,0.07,-0.86,0.47,0.99,0.39,0.63,-0.38,0.22,0.38,-0.79,-0.4,0.46,1.84,-1.26,0.53,1.21,0.1,-0.9,122.38,10.58,-0.05,-0.97,-0.5,0.39,-0.06,0.2,112,36.94,0.51,0,2.16,1
2024-01-01 09:00:54,-0.37,0.58,-0.24,0.93,-0.51,-0.46,0.06,0.37,-0.19,-0.34,-0.82,0.82,0.56,-0.71,0.6,-0.45,-0.8,0.96,-0.56,0.9,0.57,-0.75,0.05,0.75,0.18,0.61,-0.81,-0.3,0.14,-0.44,-0.46,-0.8,-0.9,-0.36,0.5,-0.64,0.61,0.36,0.58,0.1,0.76,-0.19,0.18,-0.48,0.37,0.43,0.32,-0.71,0.14,-0.47,0.84,0.28,-0.26,0.56,0.36,-0.16,-0.08,-0.12,-0.29,-0.06,-1.17,-0.61,0.61,-1.67,-1.33,-0.31,-0.52,0.77,-2.39,-0.08,1.37,0.33,-1.53,143.1,19.29,2.43,-0.55,-2.43,0.81,-0.81,1.87,103,37.83,0.88,0,1.6,0
2024-01-01 09:00:55,0.89,-0.19,-0.37,-0.82,-0.84,0.46,0.89,-0.67,-0.89,0.49,0.11,-0.01,0.75,0.92,-0.15,0.02,0.46,-0.04,0.03,1.0,0.78,0.4,-0.19,0.23,0.82,0.49,0.43,0.41,0.5,-0.51,0.48,0.9,0.65,0.76,0.06,0.22,0.21,0.93,0.35,0.76,0.05,-0.55,-0.85,0.68,0.03,0.9,-0.15,-0.24,-0.25,-0.77,0.83,-0.5,0.08,0.53,-0.76,-0.4,-0.41,-0.57,0.48,0.14,0.72,2.13,-1.05,1.28,-0.81,0.34,0.17,1.39,0.81,-0.46,1.09,-0.09,0.69,127.84,9.57,0.3,-0.21,-1.32,0.2,-0.68,-1.23,129,37.88,0.52,0,4.68,4
2024-01-01 09:00:56,0.7,-0.89,-0.99,-0.08,-0.4,-0.79,-0.3,0.44,-0.2,-0.98,-0.14,-0.6,0.06,0.8,-0.18,0.83,-0.99,0.54,-0.5,-0.06,-0.25,-0.27,0.78,0.07,-0.46,0.98,0.31,-0.12,-0.72,0.49,-0.99,0.77,0.42,-0.78,-0.43,-0.73,-0.16,-0.34,-0.94,0.33,0.9,0.92,0.97,-0.76,-0.02,-0.01,0.36,-0.75,0.5,0.56,-0.2,0.45,0.48,0.65,-0.74,0.92,0.59,-0.75,-0.31,-0.97,0.83,-0.63,-1.81,0.0,-0.15,-0.06,-0.06,-1.01,-0.4,1.04,0.85,-0.35,0.59,230.58,5.78,0.09,-0.33,1.25,-0.89,0.31,-1.66,123,36.03,0.98,0,2.23,2
2024-01-01 09:00:57,-0.44,-0.83,-0.14,0.24,0.46,-0.63,-0.44,-0.77,-0.47,0.4,0.33,-0.14,-0.05,0.57,-0.79,0.46,0.22,-0.62,0.71,0.26,-0.7,-0.76,-0.2,-0.45,-0.62,-0.71,-0.96,-0.6,0.73,-0.24,0.05,0.4,0.96,-0.56,-0.15,-0.88,-0.15,-0.9,-0.78,-0.27,0.89,0.42,-0.51,0.79,-0.64,-1.0,0.32,-0.36,-0.43,-0.44,0.21,-0.14,-0.5,-0.02,-0.33,-0.78,0.34,0.37,0.54,-0.74,0.36,-0.66,-0.38,-0.29,-2.22,-1.61,0.83,0.1,1.46,-1.37,0.85,0.46,1.16,159.33,17.15,-0.11,0.11,-0.88,-0.27,-0.49,-1.33,117,37.34,0.53,1,1.27,2
2024-01-01 09:00:58,-0.58,-0.23,0.77,-0.74,0.49,-0.76,0.17,0.82,0.31,-0.62,0.41,0.85,-0.85,0.09,-0.31,0.45,0.98,-0.6,0.44,-0.91,-0.62,0.1,-0.49,0.75,0.71,0.81,0.95,0.79,-0.1,0.43,0.82,-0.86,-0.16,0.86,0.01,-0.96,0.2,0.39,-0.74,-0.91,0.13,0.59,0.39,0.48,-0.21,0.37,0.74,0.94,-0.67,0.5,-0.23,0.56,-0.2,-0.46,-0.63,-0.68,-0.56,0.39,0.76,0.58,0.14,0.94,1.18,-0.81,-0.04,-0.13,1.47,1.79,-1.3,0.49,0.53,-0.2,-1.26,180.2,15.62,0.71,1.22,-0.55,1.2,0.0,1.42,103,35.78,0.85,1,3.57,4
2024-01-01 09:00:59,-0.76,-0.55,0.07,-0.42,0.28,0.88,-0.44,-0.73,0.75,-0.9,0.96,0.98,-0.58,-0.77,0.3,0.27,0.94,-0.35,0.89,0.77,-0.47,-0.73,0.8,-0.41,0.97,0.25,-0.98,-0.29,0.46,-0.44,-0.49,-0.97,0.31,0.74,0.88,0.17,0.45,0.38,0.89,-0.49,0.25,0.21,-0.59,-0.12,-0.35,-0.59,0.26,0.72,-0.21,-0.11,0.46,-0.13,-0.7,-0.04,-0.01,-0.08,0.63,-0.65,0.14,0.89,1.42,-0.02,0.42,-0.7,-1.62,0.25,-1.47,2.09,1.14,-0.15,2.67,-0.63,-0.39,119.69,9.23,-0.4,-0.06,-0.31,0.46,-1.0,0.13,89,35.49,0.18,1,3.47,1
2024-01-01 09:01:00,-0.86,-0.86,-0.51,0.82,0.94,-0.8,0.05,0.45,0.62,0.21,-0.24,-0.96,0.65,0.53,0.29,-0.91,-0.5,-0.83,-0.71,0.25,-0.97,0.93,0.92,-0.79,0.47,-0.32,0.41,-0.6,-0.04,0.13,-0.11,-0.67,-0.34,-0.69,-0.89,0.38,0.25,-0.75,0.65,-0.79,-0.41,0.02,0.67,-0.72,0.82,-0.95,-0.15,-0.71,0.31,-0.55,0.76,-0.23,0.77,0.65,-0.78,-0.66,-0.78,-0.8,0.91,-0.29,-0.54,0.06,-1.08,-0.86,2.13,-0.92,0.52,-0.54,-1.02,0.06,-0.87,0.52,-0.12,215.45,6.78,1.34,-1.31,0.28,0.37,-1.0,-0.66,129,37.77,0.08,0,3.06,1
2024-01-01 09:01:01,-0.14,-0.33,-0.64,-0.15,0.79,0.37,0.25,-0.43,0.75,-0.46,-0.0,-0.26,-0.47,0.81,0.6,0.58,0.72,0.96,0.56,-0.71,-0.7,-0.11,0.59,0.95,0.63,-0.77,-0.15,0.45,-0.71,-0.35,-0.74,0.54,-0.29,-0.01,-0.04,0.95,0.2,0.27,-0.72,0.89,0.84,-0.23,0.1,0.08,-0.01,0.07,-0.54,-0.83,0.43,0.05,0.55,0.62,-0.56,-0.83,-0.28,-0.59,0.7,-0.28,-0.05,-0.73,-1.42,-1.56,-0.12,0.81,-0.13,-0.09,-1.3,-2.1,0.34,-0.66,-1.8,-0.54,0.25,104.23,18.67,0.4,0.2,-0.7,0.59,-0.02,-0.88,93,37.55,0.87,0,1.54,1
2024-01-01 09:01:02,0.67,0.1,0.86,-0.16,-0.58,-0.55,0.49,-0.77,0.39,-0.71,0.47,0.39,-0.15,-0.89,-0.79,0.16,-0.05,0.19,-0.68,-0.71,-0.72,-0.51,-0.98,0.66,-0.17,0.53,-0.06,-0.72,0.05,0.9,-0.06,0.45,-0.11,0.29,-0.97,-0.78,-0.88,0.28,0.21,-0.65,-0.68,-0.21,-0.15,0.9,-0.09,0.42,-0.48,0.14,-0.39,-0.55,0.86,-0.46,-0.82,-0.24,0.9,0.49,-0.2,-0.89,-0.22,0.65,-1.12,0.2,0.87,0.59,0.16,0.63,2.37,0.29,0.16,0.54,0.75,-1.34,0.18,294.72,14.08,1.0,1.75,0.02,-0.45,0.16,-0.64,74,37.45,0.47,1,3.3,3
2024-01-01 09:01:03,0.65,-0.67,0.61,0.29,-0.61,-0.78,-0.84,0.21,0.69,-0.94,-0.44,0.08,-0.87,0.19,0.51,-0.38,0.1,0.28,-0.94,-0.46,0.95,0.13,0.13,0.58,-0.91,-0.37,0.89,-0.98,-0.29,-0.44,-0.2,-0.61,0.5,0.45,0.95,0.41,-0.81,-0.19,0.48,-0.8,0.61,-0.7,0.17,-0.24,0.17,0.7,-0.42,-0.7,-0.07,0.77,-0.81,0.44,0.77,0.61,0.31,0.54,-0.68,0.93,0.03,0.46,1.57,0.48,-0.05,1.11,-1.15,-2.07,0.42,1.07,-0.14,-0.68,-0.96,-1.23,0.67,223.31,18.95,0.82,0.92,0.01,-1.16,-0.71,0.6,91,36.34,0.13,1,1.87,3
2024-01-01 09:01:04,-0.92,0.43,0.37,-0.52,0.99,0.21,0.92,0.13,0.99,-0.81,-0.97,0.53,-0.38,0.74,0.59,0.79,-0.0,-0.09,-0.66,-0.41,-0.86,0.15,-0.29,-0.86,0.42,-0.08,0.97,0.96,0.53,-0.12,0.85,0.88,0.94,-0.02,-0.27,-0.43,-0.18,0.24,0.36,-0.12,0.02,0.25,-0.37,-0.83,-0.17,-0.1,0.75,0.98,-0.91,0.95,-0.89,0.58,0.4,0.12,-0.69,-0.79,-0.25,0.14,0.71,-0.55,-1.04,-0.1,-1.02,-0.7,-1.15,0.02,-1.46,-0.76,0.85,1.05,0.67,1.42,-1.32,272.31,15.04,-0.09,0.08,1.95,-0.24,0.8,1.69,92,36.4,0.64,1,0.63,1
2024-01-01 09:01:05,0.46,0.83,0.84,0.54,-0.6,-0.34,-0.37,0.99,-0.03,0.4,-0.05,-0.44,-0.92,-0.69,-0.06,0.28,-0.36,-0.94,0.2,-0.24,0.87,-0.28,-0.14,-0.05,-0.89,0.74,0.91,0.37,-0.46,0.27,-0.83,-0.86,-0.19,-0.4,0.42,0.74,0.05,0.34,-0.48,0.66,-0.82,0.8,-0.32,0.51,-0.67,-0.3,-0.16,-0.05,0.38,-0.68,0.39,-0.29,0.39,-0.22,-0.98,0.57,0.19,-0.84,0.34,0.23,0.13,-0.47,-0.38,-1.71,-0.46,-1.42,0.78,-1.56,0.39,1.14,0.73,-0.48,0.76,151.22,19.8,0.01,-0.46,-0.36,0.44,-1.56,-0.5,130,37.2,0.83,1,0.17,3
2024-01-01 09:01:06,0.87,-0.0,-0.37,0.58,0.35,-0.47,0.44,0.98,0.89,0.71,0.27,0.28,0.16,-0.93,0.49,-0.62,0.39,0.55,0.2,-0.57,-0.58,-0.62,0.36,0.91,-0.26,-0.27,-0.4,-0.39,0.64,-0.75,-0.0,1.0,-0.17,-0.3,0.66,-0.15,0.95,-0.33,0.85,-0.08,-0.25,0.11,-0.67,-0.13,-0.43,0.32,0.36,0.27,0.4,0.88,0.81,-0.8,-0.82,0.67,-0.82,-0.97,0.86,-0.79,0.5,0.25,0.37,-0.51,-1.29,-0.89,0.17,0.48,1.08,0.78,0.77,-1.92,0.75,-0.52,-1.44,199.84,14.5,0.56,0.18,0.88,-0.53,-0.01,-1.8,102,36.74,0.03,1,4.27,1
2024-01-01 09:01:07,-0.55,-0.09,-0.24,-0.61,-0.06,-0.75,0.94,0.83,-0.17,0.64,0.41,0.48,-0.98,-0.25,-0.55,-0.43,0.76,-0.47,0.68,0.59,-0.17,-0.52,0.8,-0.17,-0.97,-0.69,-0.25,0.63,0.64,0.2,-0.33,0.92,0.99,-0.52,0.95,-0.61,0.29,0.66,0.6,0.16,-0.74,0.27,0.95,-0.65,0.81,0.03,-0.13,-0.8,0.6,0.01,0.26,0.57,0.69,0.25,-0.48,0.11,0.9,-0.59,-0.81,-0.13,1.96,-1.34,-0.81,-1.03,0.21,-0.85,1.08,0.31,-1.49,0.78,0.91,-0.73,-1.14,218.36,13.9,0.4,0.66,-1.0,0.92,-0.57,1.18,71,36.85,0.54,0,2.9,0
2024-01-01 09:01:08,0.48,-0.74,-0.09,0.26,-0.28,-0.52,0.8,-0.41,0.07,-0.51,0.56,0.57,0.54,0.32,-0.45,0.87,0.25,0.28,0.16,-0.79,-0.08,0.19,-0.79,-0.44,0.79,-0.81,-0.01,-0.28,0.68,-0.22,-0.02,-0.96,-0.85,0.92,-0.85,0.37,-0.25,-0.37,0.82,0.62,-0.64,-0.98,-0.64,0.13,0.21,-0.94,0.95,0.99,-0.03,0.23,0.09,-0.68,0.48,0.85,-0.61,-0.94,-0.95,0.02,-0.7,0.73,-1.58,-0.73,-0.21,-0.99,-0.03,-0.35,-0.21,-0.4,-1.29,-0.02,-0.13,-1.01,1.25,105.25,8.25,0.31,0.72,-0.81,-2.31,1.74,0.17,90,35.42,0.08,0,1.41,3
2024-01-01 09:01:09,-0.6,-0.82,0.42,0.3,-0.07,0.62,-0.13,0.89,0.84,-0.5,-0.6,0.69,0.43,0.92,-0.79,0.59,0.18,-0.67,-0.59,0.44,-0.13,-0.11,0.19,-0.46,-0.36,-0.78,-0.23,-0.6,-0.29,0.8,0.64,-0.1,0.78,0.92,-0.49,-0.18,0.21,0.75,0.9,0.06,-0.2,-0.77,0.62,-0.14,-0.63,-0.51,-0.57,-0.26,-0.71,-0.37,-0.98,0.38,0.43,-0.57,0.13,-0.36,-0.53,-0.87,-0.43,-0.58,0.36,0.32,0.4,-1.06,-1.03,-1.03,0.55,-1.21,-1.53,-0.64,-0.27,-0.05,-0.49,127.84,13.41,0.48,1.17,0.05,1.16,0.55,-0.96,115,36.82,0.88,0,2.91,3
2024-01-01 09:01:10,0.36,-0.13,0.63,-0.6,-0.9,-0.01,-0.91,-0.45,-0.76,-0.09,0.2,0.18,-0.53,-0.96,-0.96,0.57,0.15,-0.99,-0.08,-0.74,0.93,-0.93,0.07,0.06,-0.33,-0.97,-0.06,0.66,-0.17,-0.4,-0.37,-0.31,-0.84,0.55,-0.01,-0.91,-0.4,0.97,-0.01,0.28,0.82,0.69,0.88,-0.79,-0.55,0.65,-0.72,0.99,0.72,0.45,-0.55,-0.82,0.45,0.62,0.63,0.08,-0.99,0.38,-0.9,0.77,-0.85,-0.9,-0.19,-0.28,0.59,-0.16,0.25,-1.17,0.24,-0.48,-0.55,-0.65,1.51,89.48,5.72,-1.18,0.68,-0.05,-1.36,-0.3,-2.34,89,35.23,0.33,1,1.42,1
2024-01-01 09:01:11,0.85,0.17,-0.76,-0.36,-0.7,0.17,0.7,0.79,0.27,0.34,0.04,-0.52,-0.04,-0.02,-0.44,0.55,-0.03,-0.82,0.53,0.42,-0.29,0.67,-0.52,0.29,0.71,0.39,-0.85,-0.01,-0.58,0.34,-0.06,-0.23,-0.02,-0.32,0.63,0.52,0.03,-0.37,0.89,0.42,0.31,0.7,-0.79,-0.74,0.83,-0.23,-0.1,0.24,-0.59,-0.2,-0.86,-0.15,0.37,0.9,0.15,-0.8,-0.08,-0.79,-0.78,-0.97,1.72,-0.37,1.12,1.35,-0.57,0.03,0.19,1.9,-0.19,-0.05,-1.4,-0.89,-0.5,181.39,9.0,1.3,1.89,0.5,0.35,0.68,-0.68,100,36.99,0.45,1,0.68,4
2024-01-01 09:01:12,-0.83,-0.14,-0.7,0.0,0.02,-0.89,-0.45,-0.8,0.3,0.46,-0.15,-0.41,-0.19,0.19,0.06,-0.01,-0.13,0.36,0.29,0.92,-0.56,-0.89,-0.93,-0.47,-0.87,-0.8,-0.55,0.24,0.43,-0.22,-0.8,0.47,0.76,-0.46,-0.59,0.57,-0.3,-0.42,0.19,0.47,-0.81,0.01,0.4,-0.05,-0.39,0.81,-0.52,-0.37,-0.86,-0.63,0.8,-0.72,-0.97,-0.05,-0.33,-0.64,-0.47,-0.85,0.36,0.71,1.39,-1.43,-0.45,0.65,-0.48,2.47,0.67,0.98,-0.76,0.96,0.81,1.56,-2.19,210.68,19.54,-0.78,0.34,0.37,-0.05,-1.53,0.2,107,35.0,0.87,1,0.64,0
2024-01-01 09:01:13,0.13,0.98,0.67,0.05,-0.67,-0.71,-0.81,-0.39,0.47,-0.09,0.47,0.98,-0.49,-0.03,-0.27,-0.97,-0.29,0.42,0.78,0.55,0.71,0.8,0.19,-0.77,0.37,0.46,-0.96,0.96,0.71,0.32,-0.72,-0.0,-0.51,0.48,0.95,-0.28,0.49,-0.61,0.91,0.28,0.93,0.75,0.36,0.8,-0.1,0.92,0.05,-0.47,0.36,0.78,-0.22,-0.17,0.99,-0.38,-0.92,0.04,-0.31,0.22,-0.13,-0.09,0.31,-0.0,-0.04,0.94,-0.15,-1.25,1.4,1.35,-0.04,0.88,-1.52,-0.14,-1.71,292.99,16.89,1.12,-1.5,-0.41,0.22,0.82,0.53,88,35.33,0.01,0,2.38,1
2024-01-01 09:01:14,0.05,-0.42,0.12,-0.67,-0.03,-0.87,-0.41,-0.09,-0.57,0.65,-0.75,-0.02,-0.99,-0.3,0.67,-0.9,-0.72,0.76,0.57,0.0,0.92,0.12,0.91,0.43,-0.71,0.47,-0.14,0.84,-0.42,-0.94,0.87,-0.5,0.36,-0.23,-0.2,0.81,0.79,0.84,0.19,-0.65,-0.13,0.75,0.61,-0.72,0.54,-0.5,-0.17,-0.6,-0.39,-0.41,0.85,-0.08,-0.63,0.56,0.67,-0.81,0.05,0.39,0.01,0.37,1.14,0.8,1.31,-1.76,-0.48,0.45,1.57,-0.51,1.97,0.35,-0.71,-1.15,0.74,158.66,10.31,-0.64,-0.27,0.16,0.2,1.91,0.39,99,36.26,0.41,0,4.57,0
2024-01-01 09:01:15,0.91,-0.16,0.51,0.23,-0.4,-0.51,0.02,-0.75,0.09,0.13,-0.41,0.51,-0.21,-0.19,-0.99,0.61,0.75,-0.08,-0.89,-0.89,0.66,0.3,-0.33,-0.81,-0.42,-0.04,-0.34,-0.88,0.48,0.35,0.48,-0.89,-0.59,-0.71,0.48,-0.01,-0.55,0.35,0.7,-0.4,-0.38,0.98,-0.99,-0.03,0.38,-0.77,-1.0,0.21,-0.76,-0.81,-0.59,-0.05,0.67,-0.11,-0.89,-0.76,-0.19,0.97,0.64,0.68,-0.6,-0.75,1.67,-0.52,0.58,0.19,0.42,1.4,0.28,0.82,0.31,-0.45,0.49,200.28,17.33,-0.65,-1.16,0.58,0.46,0.36,-0.02,113,36.32,0.66,0,2.22,0
2024-01-01 09:01:16,-0.63,0.64,0.31,-0.66,0.48,0.09,-0.05,-0.42,0.34,0.92,-0.01,0.34,-0.22,0.4,-0.79,-0.17,-0.15,-0.94,-0.09,0.13,-0.98,-0.39,0.29,0.79,0.24,-0.91,0.81,0.93,-0.06,0.45,-0.45,0.96,-0.28,0.71,0.01,-0.3,0.41,-0.22,-0.87,0.31,-0.3,0.44,-0.32,0.43,0.57,-0.44,0.53,-0.39,-0.21,0.83,0.29,-0.25,-0.06,0.32,0.15,0.85,0.55,0.05,-0.74,-0.35,-0.07,-1.08,-1.86,0.89,0.87,-0.25,1.47,0.5,0.34,2.02,-1.25,-0.05,-0.85,290.14,10.22,-0.37,-0.07,-0.04,-1.07,0.07,-0.82,109,37.49,0.07,0,4.27,1
2024-01-01 09:01:17,-0.54,0.33,-0.0,0.36,-0.35,-0.54,0.54,0.83,0.59,-0.79,0.76,0.46,-0.23,0.95,0.84,-0.88,-0.5,-0.93,0.5,-0.12,-0.25,0.26,-0.94,-0.65,-0.78,-0.1,-0.73,0.27,0.11,-0.61,-0.02,0.36,-0.55,0.48,-0.13,0.06,0.58,-0.83,-0.95,0.92,-0.81,-0.93,-0.72,-0.99,0.55,0.14,0.73,-0.32,0.36,0.92,0.46,0.06,-0.62,-0.59,0.66,0.0,-0.29,0.8,0.71,0.6,1.2,0.76,0.34,-0.48,0.15,0.71,-0.34,-1.59,0.72,0.53,0.32,-0.76,0.96,176.55,14.38,1.15,0.28,-0.4,-0.38,-0.4,-0.44,125,35.21,0.08,1,0.59,3
2024-01-01 09:01:18,-0.54,0.2,-0.34,-0.55,0.88,0.84,-0.5,0.41,-0.86,0.74,0.94,-0.85,0.15,0.71,0.86,0.0,-0.2,-0.89,0.4,-0.78,-0.06,0.83,-0.47,-0.94,-0.32,-0.48,-0.33,0.53,-0.72,0.09,0.47,0.85,0.33,0.76,-0.53,-0.85,0.9,0.81,0.41,0.53,-0.93,0.96,0.9,0.2,0.22,-0.84,0.1,0.89,-0.46,-0.92,-0.93,0.02,0.3,-0.14,-0.39,0.7,0.94,-0.96,-0.89,0.55,-0.35,0.32,0.9,1.45,-0.91,-0.75,0.84,-0.91,-1.16,-0.94,-0.18,1.64,-0.13,258.5,13.01,0.27,-1.2,1.07,0.87,-0.47,-0.69,125,36.14,0.68,0,2.81,0
2024-01-01 09:01:19,-0.23,-0.25,-0.75,0.4,0.1,-0.77,-0.76,0.23,0.81,-0.3,-0.31,0.84,-0.52,-0.82,-0.98,-0.17,0.51,0.62,0.07,-0.91,0.6,0.75,-0.5,-0.89,-0.89,-0.12,-0.43,-0.37,0.2,0.78,1.0,-0.74,-0.2,0.32,0.31,-0.85,0.88,-0.59,0.41,0.63,0.8,0.72,-0.11,-0.39,-0.27,0.1,0.74,-0.51,0.79,-0.36,0.08,-0.79,-0.31,-0.18,0.9,-0.03,-0.84,0.82,0.68,0.04,0.96,-0.23,-0.66,-0.37,0.24,0.73,0.32,0.27,-0.24,0.15,-0.39,-0.27,1.42,147.09,13.29,0.04,-0.37,-0.67,-2.2,2.09,2.2,77,36.12,0.82,0,0.28,1
2024-01-01 09:01:20,0.4,0.3,-0.09,-0.77,-0.0,-0.93,-0.44,-0.23,0.65,-0.83,-0.44,0.22,-0.01,0.73,-0.23,-0.91,-0.59,-0.63,-0.14,-0.9,-0.39,0.08,-0.3,-0.95,0.22,0.79,0.85,0.81,0.62,0.18,0.51,-0.32,0.66,-0.13,-0.14,0.46,0.47,-0.89,-0.78,-0.22,0.44,0.36,0.72,0.88,-0.07,0.15,0.14,0.04,-0.67,-0.24,0.49,0.85,-0.74,-0.97,0.6,0.9,-0.83,-0.5,0.09,-0.32,0.63,-1.04,2.73,-1.4,0.39,-1.71,-2.17,0.23,0.36,0.12,1.49,-0.05,0.81,166.81,14.23,-0.78,1.3,1.38,-0.25,0.38,-0.7,93,35.81,0.25,0,0.71,4
2024-01-01 09:01:21,0.32,0.67,0.7,-0.11,-0.97,-0.98,-0.93,-0.28,0.28,0.11,-0.18,0.16,-0.84,0.79,0.1,0.91,-0.12,-0.48,0.57,-0.48,-0.01,-0.55,-0.65,0.74,0.31,-0.53,0.31,-0.63,0.01,-0.12,-0.37,0.11,-0.54,0.9,0.98,0.95,-0.97,0.69,0.7,0.08,-0.91,-0.53,-0.78,0.01,-0.77,-0.85,-0.59,0.14,0.66,0.36,-0.86,-0.15,-0.43,-0.95,0.21,-0.28,0.95,0.79,-0.25,0.88,-0.22,0.74,0.48,-1.73,-1.14,-0.59,0.22,-0.92,-1.41,-2.63,2.09,0.2,-1.44,144.69,5.47,1.03,1.49,0.21,0.62,1.31,0.61,93,35.13,0.93,0,0.62,1
2024-01-01 09:01:22,0.62,0.02,0.56,0.02,0.16,-0.31,-0.57,0.66,-0.93,0.45,-0.24,1.0,-0.84,-0.85,0.87,-0.55,0.01,0.15,0.1,-0.16,0.47,0.7,0.06,-0.9,-0.06,0.05,-0.12,-0.46,0.67,-0.41,-0.51,-0.51,0.54,-0.28,-0.09,0.5,-0.77,-0.52,0.47,0.76,-0.28,-0.3,0.01,0.83,0.31,0.21,-0.1,-0.16,0.14,0.65,-0.75,0.08,0.55,-0.18,0.17,-0.72,-0.48,-0.43,-0.37,-0.84,0.63,-1.53,-2.73,0.86,-0.22,-0.45,0.97,-0.95,-0.04,0.06,0.69,0.34,0.34,172.62,19.75,-0.4,-0.38,0.34,-0.5,-0.83,1.29,106,36.48,0.88,0,4.51,3
2024-01-01 09:01:23,-0.97,-0.76,-0.47,0.11,0.86,0.49,-0.75,-0.93,-0.14,0.38,0.98,-0.74,0.73,0.84,0.81,-0.29,-0.2,0.11,0.42,-0.76,0.79,0.8,0.18,0.23,0.99,-0.91,0.48,-0.29,-0.1,-0.18,-0.1,0.67,-0.42,-0.05,-0.73,-0.63,0.53,0.83,0.87,-0.83,0.79,0.19,-0.26,0.3,-0.24,-0.12,0.02,0.18,0.89,-0.81,-0.41,-0.32,0.13,0.79,0.16,0.69,-0.15,-0.35,-0.36,-0.64,-0.67,-0.46,1.23,-0.69,0.32,0.41,-0.09,-0.39,-1.13,0.63,1.1,1.0,0.37,111.5,17.21,-1.98,0.77,-0.11,-0.59,0.66,0.23,117,37.65,0.73,1,2.64,4
2024-01-01 09:01:24,0.76,-0.37,-0.31,-0.67,-0.42,-0.03,-0.55,-0.66,0.88,-0.48,0.21,-0.79,-0.54,-0.44,-0.81,0.1,0.02,-0.66,0.2,-0.92,0.78,0.08,-0.61,-0.02,0.64,-0.26,-0.44,0.9,-0.15,-0.11,-0.75,-0.09,0.84,0.43,0.84,-0.76,0.78,-0.01,-0.83,-0.73,-0.44,0.34,0.94,0.61,0.49,-0.56,-0.85,-0.69,-0.33,-0.09,0.47,0.34,-0.85,0.38,0.78,-0.92,-0.8,0.41,0.04,-0.62,1.01,0.34,-0.27,-0.35,0.61,-1.34,-0.5,-2.19,0.42,0.65,-0.77,-1.09,0.95,202.8,17.56,-0.71,0.64,-0.01,-0.53,0.58,0.03,110,35.11,0.63,0,1.3,4
2024-01-01 09:01:25,-0.25,0.89,0.35,-0.47,-0.7,0.63,0.47,-0.43,-0.6,0.75,0.9,0.71,0.5,-0.99,-0.87,0.12,-0.58,-0.64,-0.16,-0.47,-0.24,0.17,0.28,-0.03,0.31,-0.64,-0.4,-0.54,-0.42,-0.03,0.59,-0.22,-0.29,-0.04,-0.81,-0.78,0.76,0.51,-0.43,0.94,-0.35,0.32,-0.77,-0.07,-0.36,-0.77,0.39,0.41,0.55,-0.03,0.61,-0.02,-0.18,-0.53,-0.42,0.01,0.78,0.57,-0.88,0.54,1.49,-0.74,-1.32,-0.02,0.48,-0.19,1.8,1.21,-0.53,0.06,-1.81,1.05,-0.68,137.55,9.76,0.2,-0.26,-1.49,0.83,-1.06,-0.52,95,37.43,0.43,1,4.57,2
2024-01-01 09:01:26,-0.03,-0.56,0.27,-0.91,-0.1,-0.56,0.75,0.07,0.56,-0.78,0.94,0.22,-0.74,0.08,0.9,-0.96,-0.24,0.56,-0.33,-0.29,0.53,-0.87,-0.9,-0.58,0.07,0.97,0.68,-0.21,0.44,-0.42,-0.68,-0.25,-0.17,0.11,-0.5,-0.97,0.69,0.51,0.05,0.0,0.58,-0.92,-0.43,-0.95,0.26,0.38,-0.93,0.5,0.63,-0.24,-0.2,0.64,0.75,0.72,-0.85,0.01,0.41,0.47,-0.96,0.49,0.85,-0.97,1.49,-0.99,-1.17,0.05,1.63,-0.01,0.98,-1.34,-0.37,-0.3,-1.26,199.17,18.78,-1.59,-0.24,1.58,0.22,-0.68,-2.04,76,37.21,0.79,0,4.17,2
2024-01-01 09:01:27,0.57,-0.15,0.49,-0.4,-0.08,-0.8,0.94,0.15,-0.25,-0.14,-0.56,-0.19,-0.44,-0.43,0.41,0.01,-0.24,0.99,0.46,0.9,0.53,0.43,-0.1,0.16,-0.95,0.54,-0.11,-0.05,-0.78,-0.38,-0.71,0.26,-0.83,0.12,-0.58,0.88,0.19,-0.83,-0.19,0.68,0.05,0.68,0.52,-0.88,-0.01,-0.18,0.48,0.67,-0.93,0.38,0.2,0.74,-0.46,-0.58,0.12,-0.02,-0.0,0.92,-0.53,-0.08,-0.37,-0.44,0.38,-0.25,0.63,0.77,-0.07,-0.06,0.03,-1.74,0.72,1.7,0.06,186.26,13.32,-0.78,-0.01,-0.43,0.03,-0.31,-2.15,117,37.98,0.08,0,2.19,0
2024-01-01 09:01:28,-0.25,0.51,-0.68,0.5,-0.67,-0.12,0.94,-0.92,-0.15,-0.66,0.61,-0.03,0.5,0.09,-0.2,-0.41,-0.13,-0.41,0.84,0.35,0.04,0.23,-0.26,0.3,-0.72,0.05,-0.59,0.23,0.43,0.04,-0.5,-0.07,0.87,0.85,0.44,0.7,-0.73,0.05,0.66,-0.98,-0.17,-0.7,-0.87,0.95,-0.38,-0.62,0.39,0.08,-0.34,-0.88,-0.06,-0.69,-0.3,0.12,-0.55,0.26,0.86,-0.45,0.64,0.74,0.1,2.22,-1.34,1.1,0.4,-0.92,-1.34,0.26,0.36,-1.51,0.93,-0.49,0.49,208.58,9.59,0.7,0.9,-0.99,2.01,-0.92,0.89,109,37.3,0.93,0,0.48,1
2024-01-01 09:01:29,-0.79,-0.57,-0.64,0.13,-0.75,0.04,0.29,-0.23,0.15,0.71,0.21,0.93,0.47,0.23,0.82,-0.58,-0.99,-0.54,-0.57,0.86,0.23,-0.71,-0.05,-1.0,-0.84,0.94,-0.73,0.61,-0.15,-0.06,-0.39,0.52,-0.52,-0.21,0.55,0.41,-0.29,0.68,-0.37,-0.84,0.21,-0.57,-0.67,0.27,-0.44,-0.71,-0.13,-0.12,0.39,-0.5,-0.76,0.8,0.3,-0.64,0.73,0.71,0.54,-0.31,-0.15,0.23,-0.5,0.05,-0.12,0.47,1.05,-0.61,-0.88,-2.06,0.18,-0.17,0.11,-0.1,0.76,272.78,18.81,-0.51,0.35,-0.03,-0.96,-0.69,0.92,82,36.15,0.18,0,1.06,2
2024-01-01 09:01:30,0.05,-0.99,-0.38,-0.81,-0.26,-0.49,0.84,0.21,-0.93,-0.45,-0.04,-0.91,0.39,-0.49,0.25,0.94,0.65,0.73,0.86,0.99,0.26,-0.02,-0.05,0.75,0.5,0.61,-0.92,-0.94,0.79,-0.69,0.47,0.74,-0.74,-0.16,0.69,-0.89,0.27,-0.88,-0.81,0.09,0.97,-0.61,0.23,-0.97,0.67,0.7,-0.37,0.42,0.81,0.17,0.89,0.03,0.88,-0.19,0.68,0.34,-0.87,0.65,0.0,0.46,0.82,0.74,-0.17,-2.24,-1.66,-0.26,-1.52,1.14,-0.81,-0.27,1.74,1.03,0.35,98.47,11.65,0.22,-0.76,0.76,0.21,-0.14,0.64,87,36.83,0.69,1,0.95,0
2024-01-01 09:01:31,-0.38,0.12,-0.76,-0.07,0.67,-0.83,0.86,-0.82,0.84,-0.63,-0.83,-0.36,0.25,-0.96,-0.66,-0.98,0.28,-0.08,0.75,0.89,-0.38,0.36,0.89,0.73,0.49,0.48,-0.38,-0.24,-0.43,-0.44,0.13,-0.17,0.67,-0.45,-0.6,0.96,-0.48,-0.12,-0.82,-0.29,-0.27,0.54,0.05,0.66,0.37,-0.66,0.9,0.17,-0.69,0.14,0.99,-0.13,0.29,0.36,-0.42,-0.32,0.94,0.1,0.49,-0.46,0.66,-0.97,0.92,-0.09,0.08,-1.32,-1.29,-1.45,2.39,2.27,-1.7,-1.51,-0.51,192.92,8.16,1.11,0.63,2.17,-0.3,-0.7,0.06,83,36.4,0.03,0,2.63,1
2024-01-01 09:01:32,-0.05,-0.07,-0.35,0.13,0.32,0.8,-0.36,-0.79,-0.28,0.8,-0.68,-0.05,-0.33,0.81,-0.63,-0.28,-0.67,0.09,0.5,-0.12,0.23,0.19,0.39,0.46,-0.05,-0.51,0.45,0.2,-0.03,-0.2,-0.92,0.86,-0.53,0.87,0.85,-0.78,-0.15,-0.46,0.15,0.19,-0.67,-0.67,-0.4,0.19,0.4,0.05,0.9,0.14,-0.72,0.33,0.58,-0.89,-0.82,0.59,-0.72,-0.31,-0.21,-0.08,0.32,-0.6,-0.17,-0.03,0.11,2.12,0.12,-1.06,-0.29,0.73,0.6,0.55,-1.7,-1.56,-0.13,117.86,9.61,0.45,-0.83,1.49,0.54,-0.52,2.78,81,35.71,0.2,0,3.65,1
2024-01-01 09:01:33,0.37,0.69,-0.25,-0.05,-0.31,-0.06,0.37,0.4,0.83,0.34,0.66,0.41,0.53,-0.81,-0.74,0.53,-0.73,0.55,0.8,0.64,0.46,-0.15,-0.21,-0.86,-0.02,0.48,0.17,-0.56,0.22,0.54,-0.26,-0.32,0.65,0.22,0.5,0.83,0.29,-0.72,-0.62,-0.58,-0.13,-0.32,0.31,-0.15,-0.43,-0.23,0.64,-0.93,0.92,-0.16,-0.67,0.36,0.67,-0.07,-0.83,0.37,-0.8,0.72,0.61,-0.98,-0.47,-0.37,-0.42,0.04,-1.07,0.74,0.87,0.67,-0.45,-0.45,0.61,0.22,-0.8,150.19,13.62,-2.02,-0.39,0.52,0.49,-1.51,0.84,94,37.06,0.01,1,2.17,0
2024-01-01 09:01:34,-0.39,-0.48,0.27,0.21,0.6,-0.1,-0.25,-0.05,-0.33,0.07,-0.27,0.57,0.96,0.06,-0.23,0.35,-0.7,-0.33,0.87,0.18,-0.6,0.63,0.46,-0.09,-0.9,-0.44,-0.76,-0.02,-0.27,0.78,0.37,-0.5,-0.33,-0.41,0.64,0.09,-0.64,-0.29,-0.96,-0.35,0.27,0.19,-0.29,-0.93,0.48,-0.5,-0.83,-0.81,0.45,0.27,-0.14,-0.45,0.94,0.38,-0.51,0.65,0.67,0.47,0.05,-0.08,1.85,-0.35,-0.2,-0.52,-0.35,1.21,-0.78,0.24,-0.28,0.19,-0.29,0.82,1.04,96.84,10.59,0.37,-0.22,0.79,-0.75,0.43,-0.51,79,36.83,0.72,0,1.97,0
2024-01-01 09:01:35,-0.32,0.27,-0.4,-0.2,-0.63,0.49,0.44,0.49,-0.84,0.82,0.93,0.59,0.14,0.99,0.23,0.08,0.59,0.39,-0.9,0.15,-0.57,0.87,-0.45,0.38,-0.63,0.0,-0.91,-0.2,-0.64,-0.43,-0.99,-0.59,0.56,0.31,-0.45,-0.08,0.58,0.27,-0.81,-0.55,0.42,-0.56,0.22,0.46,0.22,-0.08,-0.16,0.19,0.08,-0.05,0.12,-0.31,-0.36,0.65,-0.7,0.71,-0.0,0.06,-0.66,-0.22,0.21,-0.96,1.18,-1.26,-0.13,-1.48,1.16,1.55,-1.19,0.32,-0.3,0.51,1.58,168.65,14.91,0.39,-0.77,-0.69,-0.35,-0.73,0.76,106,37.9,0.63,1,0.51,4
2024-01-01 09:01:36,-0.26,-0.42,-0.37,0.35,-0.94,0.25,-0.67,-0.3,-0.14,0.99,-0.95,0.95,0.11,-0.02,-0.53,0.84,-0.74,0.21,0.7,-0.81,-0.56,0.98,0.14,-0.64,-0.68,0.56,0.47,-0.2,-0.18,0.5,-0.16,0.2,-0.36,-0.27,-0.79,0.77,0.92,0.52,-0.36,0.07,-0.22,0.72,-0.01,-0.07,0.65,-0.1,0.85,-0.64,-0.42,0.07,-0.33,-0.07,-0.66,0.81,-0.23,0.31,0.95,-0.18,0.27,0.24,0.85,1.26,-0.42,1.15,1.68,-1.33,-0.49,-0.11,0.82,1.34,-1.73,-0.67,1.15,110.49,14.3,-0.85,0.8,0.57,0.78,0.79,-0.43,75,36.8,0.73,0,1.69,1
2024-01-01 09:01:37,-0.67,0.25,0.37,0.9,-0.95,0.2,0.58,-0.22,0.02,-0.61,0.83,-0.08,0.45,-0.52,-0.06,0.43,-0.6,-0.73,-0.87,-0.94,0.16,-0.08,0.37,-0.11,-0.52,-0.65,-0.08,0.28,0.61,0.68,0.74,0.82,-0.51,0.44,-0.86,0.5,0.36,-0.19,0.04,-0.06,-0.23,0.57,0.92,0.77,0.07,0.43,0.21,0.98,0.43,-0.12,0.66,-0.88,0.62,0.66,0.45,-0.92,-0.2,0.85,0.26,-0.12,-0.27,-0.35,0.23,-2.13,0.48,1.72,0.2,-0.12,0.07,0.53,1.14,-0.07,-0.17,253.23,6.55,-1.37,0.05,-1.2,-0.55,0.88,1.02,124,35.79,0.83,0,3.64,2
2024-01-01 09:01:38,-0.17,-0.32,0.83,0.59,-0.58,-0.81,0.28,-0.85,0.8,-0.02,-0.51,-0.48,-0.41,-0.11,0.57,0.4,0.14,0.19,0.52,-0.7,-0.42,-0.56,-0.26,-0.27,-0.42,0.89,-0.68,0.27,-0.05,-0.12,-0.41,0.49,0.39,-0.71,-0.42,-0.23,0.27,-0.94,-0.58,-0.39,0.17,-0.48,0.44,0.49,0.99,-0.19,0.24,-0.66,-0.31,-0.69,0.71,-0.37,-0.25,0.73,-0.03,-0.66,0.05,-0.65,0.79,-0.97,0.46,1.21,-1.65,1.63,-0.85,0.3,-0.67,0.31,0.02,1.14,2.46,0.88,-0.12,288.33,10.14,1.53,-1.7,-0.58,-0.23,-0.28,-0.74,89,35.62,0.15,0,3.28,2
2024-01-01 09:01:39,-0.0,0.14,0.28,-0.98,0.49,0.64,0.58,0.8,0.48,-0.27,-0.93,0.25,0.9,0.01,-0.46,0.92,0.69,0.08,-0.84,0.6,-0.11,0.05,-0.51,0.59,-0.63,0.87,0.72,-0.54,0.43,-0.65,0.96,-0.47,-0.45,0.49,0.47,0.83,0.81,-0.73,-0.39,-0.58,-0.51,0.52,-0.05,-0.8,0.76,-0.9,0.58,-0.85,-0.04,-0.12,-0.05,-0.8,0.18,0.2,-0.4,-0.98,-0.14,0.81,0.44,-0.11,0.7,-0.0,-0.14,1.41,-0.45,1.03,-0.27,-0.25,-0.76,-1.46,-0.66,-1.78,0.26,221.38,13.83,-0.31,1.08,-0.73,-0.26,1.22,0.89,110,36.84,0.46,0,1.33,3
2024-01-01 09:01:40,0.2,-0.01,-0.65,0.01,0.03,0.9,-0.4,0.73,-0.5,-0.45,0.12,-0.38,-0.12,0.95,0.89,-0.02,-0.36,0.95,-0.06,-0.67,-0.87,-0.14,-0.39,0.85,-0.11,0.28,0.08,-0.63,0.56,0.53,-0.57,0.0,-0.36,0.06,-0.79,-0.4,0.22,0.14,-0.69,-0.69,0.53,0.57,0.7,0.22,-0.69,0.91,0.96,0.31,0.58,0.56,-0.46,0.87,-0.06,0.71,-0.39,-0.71,-0.33,-0.29,0.49,-0.1,0.14,-1.03,0.59,-0.29,-0.52,1.33,1.47,-0.89,1.72,-0.09,0.78,1.83,-0.16,173.57,10.9,0.26,0.72,1.58,0.02,0.81,-0.77,96,35.02,0.94,0,4.85,2
2024-01-01 09:01:41,0.29,-0.72,-0.09,-0.45,0.64,-0.6,0.32,-0.49,0.67,-0.95,-0.15,-0.24,0.12,0.48,0.59,0.24,-0.12,-0.45,-0.85,-0.68,0.45,0.88,0.19,0.9,0.89,0.56,-0.22,0.92,0.41,-0.5,0.97,0.17,-0.88,-0.89,-0.31,0.08,-0.12,-0.43,-0.06,0.76,-0.85,0.95,0.46,0.65,0.75,0.18,0.15,0.12,-0.12,-0.34,0.09,0.32,0.11,0.63,0.38,-0.72,0.54,0.74,0.4,0.48,-1.48,-0.68,-0.68,0.98,-0.07,-0.61,-0.89,-0.42,0.92,-0.89,-0.13,-0.38,0.35,290.58,10.42,1.84,-0.65,0.32,-0.02,-0.47,0.05,119,36.34,0.88,0,1.67,1
2024-01-01 09:01:42,-0.08,-0.33,0.36,0.41,-0.49,0.5,-0.95,-0.76,-0.18,-0.21,-0.03,-0.9,0.06,0.83,0.02,-0.97,-0.13,-0.94,0.01,0.6,0.58,-0.02,0.15,0.27,0.47,0.13,0.95,0.56,0.06,0.6,0.69,-0.82,0.84,0.22,0.99,0.5,0.53,-0.14,-0.45,-0.1,0.76,0.48,0.3,-0.85,0.3,-0.32,0.06,0.39,0.64,-0.14,-0.96,0.15,-0.99,0.66,-0.96,-0.55,-0.15,-0.48,-0.55,0.35,1.82,-0.07,-0.07,-0.38,0.42,-1.0,0.12,0.45,-0.85,1.6,1.56,2.25,0.57,151.86,11.87,0.42,-0.08,0.07,0.93,0.02,-0.15,112,35.6,0.82,1,4.48,4
2024-01-01 09:01:43,-0.69,0.55,-0.59,-0.64,-0.95,0.2,0.69,0.56,0.08,0.91,-0.35,-0.37,-0.54,-0.58,-0.39,-0.15,-0.46,0.87,-0.57,-0.29,-0.73,0.8,-0.12,0.67,-0.25,-0.11,0.49,0.48,-0.24,-0.11,-0.2,-0.59,-0.24,0.63,-0.81,-0.65,0.83,0.45,-0.76,0.51,-0.76,-0.02,0.21,0.5,-0.37,-0.62,0.97,0.6,-0.28,-0.49,-0.78,-0.09,-0.99,0.61,-0.2,0.71,-0.29,0.89,0.67,-0.13,0.56,-0.63,1.58,0.01,0.76,-0.8,-0.04,-0.39,-0.35,-1.14,1.06,0.48,-1.42,266.52,9.51,-0.21,-0.22,0.4,-0.15,1.09,0.96,114,35.25,0.64,1,4.39,0
2024-01-01 09:01:44,0.9,-0.45,0.29,-0.35,-0.72,-0.5,0.13,-0.74,-0.69,0.39,0.52,-0.88,0.6,0.73,0.32,-0.26,-0.17,-0.69,-0.66,0.87,0.93,0.48,0.62,-0.64,0.76,-0.78,-0.68,-0.0,-0.39,0.25,0.82,-0.47,-0.36,0.57,-0.34,0.78,-0.93,0.74,0.83,-0.91,-0.25,0.2,0.05,-0.68,-0.97,0.79,-0.82,0.98,-0.78,-0.05,0.97,0.71,0.07,-0.73,0.21,0.27,-0.38,-0.06,0.81,-0.74,2.21,-2.23,1.37,0.79,-0.18,-0.26,-0.09,0.25,-0.54,-1.6,-0.52,-0.27,0.57,224.4,10.48,-1.19,0.64,-1.2,0.4,0.55,-0.13,109,37.01,0.1,1,3.77,4
2024-01-01 09:01:45,-0.61,-0.56,-0.74,0.88,-0.55,-0.84,-0.81,-0.19,0.77,-0.79,-0.55,-0.63,0.32,-0.34,0.95,0.34,0.04,0.15,0.77,0.52,-0.74,-0.16,0.32,0.16,0.87,-0.93,0.81,-0.23,-0.9,-0.6,-0.64,-0.71,-0.93,0.59,-0.68,-0.35,0.14,-0.03,-0.31,0.26,0.63,0.15,-0.1,-0.57,0.24,0.09,-0.76,-0.44,0.54,0.85,-0.33,0.79,-0.49,0.61,-0.03,0.1,0.33,0.34,-0.32,0.04,0.05,0.7,-0.58,0.31,-0.35,1.55,0.54,-1.04,1.82,1.0,-1.21,-1.53,-1.23,93.89,10.48,-0.98,0.15,0.08,0.73,-0.31,-0.26,111,35.08,0.54,0,1.21,3
2024-01-01 09:01:46,0.66,-0.76,0.43,-0.75,-0.3,-0.09,0.11,0.88,0.93,0.94,-0.63,0.64,0.77,0.02,-0.72,0.36,0.55,-0.6,0.49,0.05,0.56,0.13,0.06,-0.91,0.07,0.08,0.39,0.99,-0.67,-0.68,0.36,0.27,0.72,-0.55,0.86,0.43,0.08,0.91,-0.15,-0.6,-0.9,0.94,-0.2,-0.22,0.04,-0.16,-0.05,-0.36,0.44,-0.4,-0.85,0.42,0.34,-0.58,0.47,0.19,-0.87,0.51,-0.72,-0.04,0.11,1.13,-1.89,-0.26,1.32,0.07,-0.29,-0.81,0.9,-0.48,-0.49,1.36,-1.05,115.26,19.58,1.63,0.17,0.02,0.29,0.02,-0.53,130,37.94,0.39,0,3.27,3
2024-01-01 09:01:47,0.18,-0.5,-0.3,-0.55,0.9,-0.72,-0.2,0.45,0.17,0.34,-0.59,-0.72,-0.45,-0.35,0.27,0.04,0.05,0.54,0.2,-0.54,-0.12,0.64,0.08,0.22,-0.69,0.76,0.51,0.44,0.75,0.9,-0.92,0.68,-0.49,0.25,-0.15,-0.66,0.42,0.73,-0.03,-0.42,0.05,-0.82,0.46,0.92,0.73,-0.52,0.7,-0.01,0.4,-0.14,-0.89,-0.79,0.54,0.68,0.46,0.81,0.28,-0.34,0.33,-0.5,0.34,-0.49,0.43,2.31,0.66,-0.19,0.26,-0.32,-0.18,-0.11,0.48,0.91,2.11,158.47,5.19,0.65,-1.1,-1.28,-0.07,1.0,-0.21,115,37.42,0.24,1,1.18,3
2024-01-01 09:01:48,0.33,-0.79,0.56,0.42,0.12,0.67,-0.25,0.04,0.85,-0.23,0.2,0.18,0.59,0.91,0.15,-0.77,0.53,-0.28,0.35,0.81,-0.16,-0.21,0.49,-0.31,0.58,0.7,0.15,0.05,0.88,0.63,0.26,0.56,0.34,-0.95,0.13,-0.95,0.89,-0.8,0.84,0.6,0.46,0.7,-0.49,0.64,-0.31,0.95,-0.5,-0.11,-0.9,-0.08,0.98,-0.47,0.59,-0.58,0.54,0.09,-0.36,-0.2,-0.3,0.63,-0.19,0.9,-0.03,1.03,-1.5,0.48,-1.78,0.27,0.9,-1.63,-2.3,0.85,0.45,265.84,17.85,-1.1,0.24,-0.54,-0.18,-0.27,-1.33,91,36.06,0.54,0,1.65,2
2024-01-01 09:01:49,-0.8,0.44,0.28,-0.37,-0.01,-0.63,-0.23,-0.47,0.41,-0.3,0.61,0.79,0.51,0.92,-0.35,-0.78,0.16,0.82,0.4,0.12,0.51,0.08,-0.2,0.39,-0.6,-0.82,0.2,0.75,-0.19,-0.47,0.43,0.07,-0.21,0.84,-0.79,0.91,0.63,0.77,-0.41,0.14,-0.84,1.0,-0.11,-0.92,0.1,0.34,-0.45,-0.01,0.67,0.97,-0.51,-0.55,0.3,-0.57,-0.98,-0.51,-0.96,0.22,0.68,-0.17,0.9,-1.06,0.09,0.65,-0.83,-0.27,-0.51,1.72,0.91,0.76,2.21,0.35,-0.34,201.27,13.52,-1.44,-0.7,0.16,0.93,-0.65,1.58,96,35.56,0.52,1,3.17,3
2024-01-01 09:01:50,0.49,0.41,0.96,0.61,-0.47,-0.26,0.8,0.87,-0.36,-0.29,0.92,-0.73,0.72,0.97,-0.51,0.08,-0.74,0.96,0.57,0.01,-0.05,-0.37,0.61,0.21,0.44,0.44,0.29,0.11,0.97,-0.07,0.15,-0.89,0.24,-0.01,-0.13,0.91,-0.66,0.12,0.12,-0.88,-0.3,0.74,-0.7,0.36,-0.87,0.44,0.14,0.89,0.46,0.43,-0.02,0.41,0.89,0.97,-0.57,-0.1,0.08,0.35,-0.34,0.14,-1.54,-0.38,0.4,0.13,0.48,0.13,0.65,-0.24,-0.3,-0.82,2.17,-0.08,0.44,272.71,19.19,-0.21,1.59,-0.01,0.33,-0.87,1.76,79,37.3,0.98,1,4.33,4
2024-01-01 09:01:51,-0.89,0.51,0.17,0.55,-0.86,-0.87,-0.17,-0.68,-0.61,0.96,0.55,0.98,0.67,-0.94,0.86,0.46,-0.34,-0.81,-0.19,0.4,0.37,0.61,-0.24,-0.05,0.69,-0.63,-0.38,-0.65,-0.14,-0.5,-0.82,-0.48,-0.6,-0.3,0.29,-0.84,-0.1,-0.81,-0.48,0.76,-0.88,0.11,0.37,-0.81,-1.0,0.97,-0.97,-0.35,-0.39,0.6,0.14,-0.25,-0.86,-0.66,0.27,-0.0,0.07,0.95,-0.81,0.37,0.22,1.8,-0.6,-0.44,-0.53,-0.28,0.67,-2.05,-0.05,-0.78,-0.89,0.47,0.3,114.03,10.61,0.86,0.39,0.18,-0.56,-0.93,0.6,81,37.67,0.71,0,2.59,3
2024-01-01 09:01:52,-0.94,-0.92,0.08,0.92,0.88,0.61,-0.38,-0.42,-0.3,-0.64,0.04,0.8,-0.0,0.21,0.99,0.84,0.88,0.86,0.1,-0.22,-0.1,-0.77,0.11,-0.32,-0.27,-0.52,0.64,-0.62,-0.19,-0.28,0.83,0.84,0.62,0.82,0.42,0.68,-0.8,0.04,0.33,-0.36,0.05,0.15,0.06,-0.21,0.09,-0.6,-0.36,-0.1,-0.6,0.89,-0.15,-0.13,-0.84,-0.95,-0.79,0.12,0.22,-0.39,0.98,0.54,-0.26,0.4,-0.0,-2.04,0.48,-0.63,0.86,-1.86,1.9,-0.6,0.47,-0.71,-0.58,249.59,15.48,0.69,-0.2,-0.13,0.85,0.19,0.45,103,37.49,0.19,0,1.6,4
2024-01-01 09:01:53,0.5,0.14,-0.65,-0.37,-0.9,-0.94,0.93,-0.23,-0.3,0.08,0.65,0.37,-0.13,0.02,0.7,0.02,0.36,-0.91,-0.57,-0.09,-0.63,-0.56,-0.36,0.43,-0.01,0.14,0.23,-0.91,-0.24,0.8,-0.77,-0.42,0.81,0.32,0.83,-0.34,-0.65,-0.22,-0.54,0.84,-0.2,-0.69,0.2,0.24,-0.48,0.84,0.36,0.42,0.8,-0.38,0.88,0.31,0.83,-0.18,-0.98,0.65,-0.25,0.69,-0.62,0.56,-0.62,0.67,0.11,0.43,0.36,1.13,0.5,-1.16,-0.59,0.23,0.4,-1.32,-0.99,135.75,5.16,1.09,1.97,-1.65,0.26,0.05,1.01,114,36.19,0.7,1,0.73,1
2024-01-01 09:01:54,-0.86,-0.77,-0.68,0.58,-0.87,0.07,-0.67,0.48,0.91,0.43,0.39,-0.43,-0.43,0.71,-0.48,0.52,-0.21,0.77,-0.6,-0.83,0.69,-0.6,0.04,-0.93,-0.04,-0.78,-0.92,-0.22,-0.83,0.39,-0.87,-0.13,-0.26,0.48,-0.12,0.54,0.33,0.01,0.95,0.54,0.45,-0.91,-0.97,-0.69,0.72,-0.5,-0.65,-0.08,0.8,-0.89,-0.24,0.89,0.01,-0.55,0.25,-0.33,0.44,-0.95,-0.12,0.69,0.5,0.83,-2.28,-0.01,-0.91,-0.88,-1.23,0.23,0.33,0.63,-0.4,1.38,-0.93,212.37,9.32,-1.43,0.22,-0.68,0.53,-0.66,-0.58,80,35.43,0.96,0,0.65,0
2024-01-01 09:01:55,-0.18,0.07,0.24,-0.66,0.87,-0.26,-0.71,-0.79,-0.53,-0.24,0.13,0.63,0.54,-0.76,-0.55,0.26,0.13,-0.85,0.3,0.82,0.87,0.29,-0.44,0.23,-0.1,0.5,0.37,0.23,-0.31,0.98,-0.09,0.84,-0.69,0.07,-0.28,-0.71,0.27,-0.65,0.93,1.0,0.76,-0.26,-0.96,0.61,-0.71,-0.08,0.42,0.08,-0.55,-0.2,0.68,-0.29,0.88,-0.16,-0.16,0.47,-0.11,-0.22,-0.27,-0.35,-0.66,-0.73,-0.0,0.24,-0.73,-1.17,0.5,0.39,0.71,-1.04,-0.83,0.82,0.9,167.75,15.85,-0.41,-0.95,-0.7,-0.97,0.8,0.71,83,35.74,0.71,0,4.75,4
2024-01-01 09:01:56,-0.27,-0.07,0.72,0.58,-0.25,-0.39,-0.21,-0.06,0.09,-0.1,0.81,0.91,0.74,-0.18,-0.6,-0.32,0.78,0.32,0.87,-0.14,0.89,-0.95,-0.59,0.13,-0.66,0.97,0.36,0.54,0.28,0.15,0.6,-0.7,-0.37,-0.51,0.48,0.53,-0.03,0.22,0.53,0.06,0.26,-0.93,-0.81,-0.87,-0.96,0.84,0.74,-0.34,-0.82,0.86,-0.29,0.49,0.92,-0.38,-0.87,0.25,-0.37,0.81,-0.11,-0.32,0.08,-0.68,-0.88,-0.62,-0.89,0.23,0.76,0.79,-0.88,-0.6,-0.55,1.02,-1.33,118.55,9.55,-0.0,-0.87,-0.19,0.69,-0.32,-0.75,121,36.69,0.9,0,0.9,0
2024-01-01 09:01:57,0.06,0.24,-0.68,0.1,-0.06,0.97,0.38,0.81,0.95,0.33,-0.71,-0.11,0.51,-0.73,-0.24,-0.24,-0.66,-0.96,0.38,0.64,0.86,0.17,-0.64,0.79,0.94,0.89,0.13,0.77,0.98,0.77,-0.86,-0.73,-0.4,-0.21,-0.7,0.99,0.58,0.34,0.92,-0.36,0.42,0.9,-0.83,0.21,0.6,-0.97,0.78,-0.16,-0.66,0.7,-0.62,-0.44,0.04,0.83,-0.02,0.81,-0.9,-0.52,-0.39,-0.1,0.75,0.13,0.48,0.26,-1.21,1.31,-0.2,0.84,-0.35,0.57,1.01,0.88,0.11,175.25,5.61,-0.34,-1.41,-1.24,1.12,-0.82,0.8,117,37.99,0.66,0,1.73,0
2024-01-01 09:01:58,-0.74,0.96,0.25,0.47,-0.96,-0.24,0.81,-0.24,-0.93,0.34,0.39,-0.33,0.61,0.71,0.57,-0.19,-0.32,0.89,0.44,0.1,-0.02,-0.47,0.83,0.84,-0.83,0.33,-0.36,0.02,-0.77,0.62,0.61,-0.79,-0.85,-0.25,-0.69,0.6,0.56,0.73,-0.98,-0.97,0.61,0.74,0.23,-0.69,0.25,0.74,-0.08,0.75,0.57,-0.79,-0.76,0.41,-0.6,0.49,-0.84,-0.82,0.9,-0.99,0.58,-0.53,0.91,0.46,0.39,-1.17,-1.35,-0.66,1.65,1.37,0.04,1.29,-0.93,-0.37,1.59,91.0,6.19,2.1,0.77,-1.59,1.35,-0.27,0.72,90,36.88,0.19,0,3.57,3
2024-01-01 09:01:59,0.21,-0.63,-0.42,0.35,0.73,-0.88,-0.63,-0.99,-0.65,-0.6,-0.71,0.08,0.95,0.4,0.41,-0.85,-0.63,-0.36,0.98,-0.68,0.27,0.18,0.2,0.01,-0.43,-0.15,0.65,0.47,0.06,0.31,0.94,-0.5,0.51,-0.87,-0.87,-0.31,0.47,0.24,0.64,-0.84,0.53,0.43,-0.98,0.49,-0.82,0.18,0.83,-0.28,0.36,0.36,-0.87,-0.48,0.68,-0.1,0.48,-0.04,-0.0,0.53,-0.37,1.0,0.1,1.01,0.05,2.73,0.97,-1.26,-1.68,-1.67,0.59,0.96,-2.61,1.22,0.35,121.86,13.81,1.62,-0.97,0.29,0.28,-0.77,-1.27,72,37.07,0.41,1,1.69,3
2024-01-01 09:02:00,-0.07,0.8,-0.1,-0.72,0.5,-0.16,-0.95,-0.72,-0.37,0.98,0.26,-0.2,-0.97,0.58,0.32,-0.65,0.19,-0.63,-0.81,-0.22,-0.7,-0.33,-0.96,-0.22,-0.39,0.91,0.1,-0.54,-0.03,0.45,-0.13,0.89,-0.68,0.94,-0.88,0.92,-0.87,-0.35,-0.05,-0.42,-0.53,0.89,0.61,-0.17,-0.97,-0.38,-0.68,0.26,0.37,-0.14,-0.76,-0.74,-0.44,0.45,0.61,0.73,-0.26,0.94,-0.87,-0.11,0.93,0.23,0.39,1.36,-0.04,0.31,0.35,0.38,-1.41,-0.02,1.16,-0.13,-0.47,171.74,8.14,0.97,0.01,-0.63,-0.86,-0.05,-0.66,90,37.06,0.91,1,3.21,3
2024-01-01 09:02:01,0.57,0.11,0.15,-0.34,-0.61,-0.75,-0.36,0.27,0.94,-0.54,0.19,-0.53,0.64,-0.02,-0.06,-0.96,0.02,-0.81,0.5,0.25,-0.84,-0.02,0.21,0.78,0.92,-0.47,-0.1,0.55,0.58,-0.45,-0.71,0.7,-0.88,-0.51,0.27,-0.35,0.65,-0.03,-0.71,-0.45,-0.36,0.97,0.21,0.07,0.65,0.29,0.92,0.2,-0.76,0.47,0.47,-0.61,0.6,-0.44,0.58,-0.15,0.64,-0.98,-0.48,-0.71,0.9,-0.76,0.28,0.42,0.63,1.57,-1.35,0.61,0.62,-1.09,0.26,-0.42,1.4,85.56,14.77,-0.57,-0.22,-0.38,-0.84,-1.55,-0.83,118,36.26,0.37,0,2.29,3
2024-01-01 09:02:02,0.11,0.19,0.52,-0.78,-0.45,-0.45,0.41,-0.09,-0.67,-0.74,0.91,-0.75,0.74,0.11,-0.26,-0.37,0.44,0.1,0.26,0.29,-0.21,-0.35,0.67,-0.93,-0.43,0.13,0.14,0.77,-0.89,0.43,-0.74,-0.87,-0.86,-0.7,0.05,0.88,-0.53,0.51,0.94,-0.32,-0.17,0.5,-0.02,0.09,0.05,0.28,-0.21,-0.69,0.65,0.63,-0.1,-0.77,0.82,-0.48,-0.52,0.29,0.12,-0.9,0.69,-0.55,0.14,0.28,0.81,1.05,0.4,0.8,0.52,-1.1,0.38,0.01,-0.56,0.01,0.36,89.33,8.29,-0.2,0.99,0.34,0.87,1.26,-0.4,84,37.85,0.95,0,2.55,2
2024-01-01 09:02:03,-0.22,0.27,-0.21,0.02,-0.42,-0.95,0.43,-0.17,-0.86,-0.6,-0.93,-0.54,-0.02,-0.3,-0.84,0.76,0.02,0.66,-0.21,-0.7,-0.99,0.26,0.25,-0.47,-0.25,-0.22,0.67,0.51,-0.49,-0.61,0.8,-0.21,0.3,-0.1,-0.11,0.94,0.34,0.54,-0.59,-0.77,-0.23,-0.79,0.87,-0.59,0.52,0.47,-0.4,0.38,-0.57,0.19,-0.39,-0.07,0.3,-0.54,0.78,0.69,-0.57,-0.95,-0.98,0.66,-0.44,1.16,-0.77,-0.1,-0.49,-0.99,0.5,-0.27,-0.93,0.93,-1.32,-0.15,0.89,269.28,8.1,0.92,0.43,-0.88,0.16,0.36,-0.44,130,37.16,0.72,1,4.92,4
2024-01-01 09:02:04,0.51,0.84,-0.04,0.19,0.59,0.33,0.88,-0.84,-0.79,-1.0,-0.94,-0.9,-0.98,-0.45,-1.0,-0.11,0.46,0.92,-0.81,-0.26,0.29,0.94,0.48,-0.25,-0.44,0.31,-0.41,-0.93,-0.76,-0.72,-0.09,0.86,0.97,0.83,-0.76,0.27,0.9,0.59,0.76,0.86,-0.65,-0.77,0.45,-0.09,0.77,0.39,-0.45,-0.95,0.13,-0.87,0.38,-0.57,-0.2,-0.25,-0.93,-0.14,-0.07,-0.65,-0.97,0.79,0.38,-1.48,-1.75,-0.64,0.69,0.86,-1.28,1.47,0.09,-1.55,0.3,1.27,-0.48,224.45,19.39,0.98,1.44,0.04,-0.75,1.17,1.17,126,35.84,0.28,1,1.09,2
2024-01-01 09:02:05,-0.95,-0.46,0.74,-0.53,-0.1,-1.0,0.3,0.75,0.67,-0.13,0.9,-0.02,-0.54,0.7,-0.91,-0.27,0.2,-0.09,-0.06,-0.67,0.32,-0.26,0.1,-0.71,0.47,-0.31,-0.65,-0.2,-0.07,-0.31,-0.42,0.63,0.5,-0.01,0.08,-0.28,-0.14,0.2,0.77,-0.33,-0.28,-0.07,0.51,0.72,-0.67,-0.91,0.01,0.72,0.25,0.2,0.08,0.66,-0.68,0.6,-0.72,0.63,-0.59,0.39,-0.84,-0.16,-1.26,-0.1,0.72,0.78,-0.29,-0.96,1.57,0.09,-0.18,-0.59,-0.2,-1.57,1.0,104.61,12.52,-0.27,-2.1,-0.98,0.96,-0.14,-0.79,72,36.56,0.58,1,4.68,1
2024-01-01 09:02:06,0.48,0.37,0.58,-0.02,-0.35,0.67,-0.25,0.87,0.05,0.64,-0.56,-0.3,-0.18,0.5,-0.79,0.28,-0.09,0.67,0.79,-0.62,-1.0,0.59,0.01,-0.78,-0.71,-0.86,0.9,-0.52,-0.19,0.65,0.08,-0.81,0.63,-0.95,-0.94,-0.76,-0.63,0.55,-0.86,-0.49,0.9,-0.16,-0.28,-0.19,0.4,-0.4,-0.22,-0.58,-0.14,0.18,-0.04,0.23,-0.92,-0.02,-0.94,-0.36,-0.94,0.4,0.72,-0.23,0.13,-0.3,0.11,0.32,-0.82,-0.58,-0.73,-0.7,-0.63,-0.29,-0.61,0.16,-0.31,198.58,6.47,-0.71,-1.93,-0.9,-0.36,0.96,-0.07,114,36.76,0.88,1,4.97,3
2024-01-01 09:02:07,-0.92,-0.03,0.81,-0.05,0.09,-0.83,0.45,0.43,0.84,-0.09,0.5,-0.52,0.97,-0.93,-0.38,0.55,0.71,-0.57,-0.18,-0.98,-0.74,0.73,0.56,0.87,-0.11,0.0,-0.07,0.39,-0.22,0.85,0.31,-0.9,0.17,0.4,-0.02,0.8,-0.41,-0.67,-0.42,-0.34,-0.78,-0.69,0.67,-0.6,-0.03,-0.99,0.55,0.61,0.81,0.54,-0.91,-0.63,-0.32,0.37,0.69,-0.54,-0.11,0.4,0.82,-0.8,-1.51,0.1,-0.45,0.57,-1.46,1.21,0.45,-0.21,-1.54,-1.46,0.69,0.8,1.04,110.63,16.11,1.67,0.75,0.41,2.39,-0.55,-0.1,130,36.82,0.02,1,1.9,3
2024-01-01 09:02:08,-0.96,0.05,0.39,0.27,-0.79,-0.05,-0.44,0.11,-0.16,-0.87,-0.47,0.9,-0.28,-0.2,0.84,0.81,0.75,-0.76,-0.68,0.14,0.33,-0.11,0.99,-0.25,-0.47,-0.87,0.58,-0.63,-0.17,0.12,-0.54,-0.71,-0.73,0.4,-0.98,-0.88,0.58,-0.77,0.33,0.17,-0.98,0.76,-0.73,0.84,0.72,0.6,-0.62,-0.05,-0.04,-0.8,-0.22,0.27,0.08,0.61,-0.71,-0.75,0.02,0.72,-0.86,0.03,-1.54,0.62,-0.2,-0.62,-0.6,-0.79,-0.17,-1.44,-1.35,-1.11,-0.62,-0.46,-2.05,297.22,13.49,-0.52,-0.84,0.78,-0.9,1.0,1.74,85,36.88,0.41,1,4.69,2
2024-01-01 09:02:09,-0.19,0.5,-0.91,-0.36,-0.21,-0.61,0.45,-0.25,-0.1,0.67,-0.55,0.82,-0.04,0.9,0.02,-0.19,0.74,0.27,-0.52,0.04,-0.01,-0.85,0.2,-0.17,0.12,0.41,0.55,0.55,-0.92,-0.45,-0.44,0.3,0.97,-0.32,0.67,0.21,0.84,0.71,-0.06,-0.02,0.51,0.68,0.18,0.12,0.36,0.2,0.57,-0.73,-0.33,0.38,0.95,0.07,0.23,-0.87,0.26,0.87,0.75,0.19,-0.54,0.85,1.17,-0.98,0.52,-0.96,-0.83,-0.76,0.14,-0.87,0.04,1.26,-1.1,-1.61,-0.64,151.32,8.59,1.43,0.69,-0.85,-1.05,0.32,0.1,82,36.05,0.31,1,2.64,3
2024-01-01 09:02:10,-0.44,0.2,0.34,-0.62,0.23,0.57,0.6,0.38,-0.62,0.37,0.43,0.11,-0.59,-0.07,0.04,-0.77,0.45,-0.42,-0.51,0.2,0.27,-0.33,0.77,0.62,-0.25,-0.22,0.43,0.86,-0.08,-0.32,-0.49,-0.86,-0.75,-0.25,0.1,-0.21,-0.87,0.62,-0.49,-0.01,0.87,0.1,0.64,0.02,-0.16,-0.47,0.96,0.26,-0.02,-0.78,-0.13,-0.37,-0.72,-0.75,0.52,0.99,-0.92,-0.86,-0.79,0.07,0.62,-1.16,-0.08,0.9,1.13,-1.24,-0.09,-0.29,-0.84,-0.74,0.57,-0.77,-0.12,108.03,6.44,0.49,1.75,0.3,0.72,0.26,-0.21,117,37.06,0.2,0,0.15,2
2024-01-01 09:02:11,0.95,0.44,-0.43,-0.52,-0.56,0.21,0.5,0.86,-0.29,-0.53,-0.95,0.17,0.52,-0.66,0.93,-0.23,0.08,-0.97,-0.68,0.14,0.23,0.95,0.62,-0.75,-0.51,-0.19,-0.52,0.22,0.78,0.84,-0.44,-0.99,0.34,-0.13,0.72,0.7,-0.11,-0.54,0.69,-0.18,-0.11,-0.7,0.78,0.7,0.5,-0.95,0.53,-0.59,0.35,-0.13,0.75,-0.32,-0.96,0.02,-0.22,-0.12,-0.59,-0.71,-0.85,0.67,-0.22,-0.12,-2.14,-0.33,0.44,-0.74,1.45,0.13,-0.13,0.84,0.56,1.13,1.33,230.32,7.53,1.47,0.46,-1.04,-0.24,1.64,0.26,95,35.62,0.31,1,1.44,2
2024-01-01 09:02:12,0.8,-0.24,0.76,0.92,0.37,0.13,0.29,-0.87,0.43,-0.96,0.14,-0.28,-0.96,-0.13,-0.11,-0.15,-0.13,-0.3,-0.46,0.82,-0.48,-0.68,-0.56,0.17,0.03,0.06,-0.61,-0.93,-0.24,-0.9,-0.54,0.41,-0.68,0.23,0.11,-0.5,0.05,-0.49,-0.7,-0.72,-0.13,0.74,-0.63,-0.18,-0.67,-0.87,0.74,0.24,0.15,0.57,0.74,0.73,0.48,-0.42,-0.06,-0.15,-0.66,-0.97,0.92,0.21,-0.43,-0.54,-1.08,0.92,-0.45,-0.98,-0.87,-2.61,0.71,-0.24,-1.23,1.39,0.05,96.95,16.59,-2.24,0.72,-1.01,0.6,0.51,0.14,87,37.45,0.18,0,3.92,4
2024-01-01 09:02:13,0.52,0.45,-0.69,0.86,-0.51,-0.98,0.71,0.53,0.03,-0.96,0.01,-0.89,-0.73,-0.9,-0.69,-0.74,0.72,0.67,0.15,-0.44,-0.51,-0.65,-0.78,-0.5,0.28,0.51,-0.87,-0.25,-1.0,-0.08,0.6,0.36,-0.21,0.08,-0.19,0.05,0.92,0.89,-0.29,0.21,0.44,0.5,0.5,0.05,-0.18,0.01,-0.0,0.61,-0.59,0.2,-0.26,-0.4,0.21,-0.18,-0.25,-0.25,-0.37,-0.6,-0.97,-0.13,-1.25,-1.23,-0.05,-0.94,1.22,-0.1,-1.0,1.0,-1.91,-0.13,0.56,-1.03,-0.43,220.46,7.21,-0.67,-1.12,0.08,0.85,2.0,0.76,125,36.77,0.76,0,3.28,2
2024-01-01 09:02:14,-0.21,-0.72,0.8,0.81,-0.49,-0.2,0.43,-0.26,-0.59,-0.74,0.92,-0.51,-0.71,0.28,-0.8,-0.25,-0.3,0.82,0.77,0.74,-0.84,-0.41,0.64,0.1,-0.92,0.96,0.69,-0.86,-0.34,-0.38,0.01,-0.98,-0.8,0.49,0.12,-0.88,0.02,0.26,-0.26,-0.1,-0.33,0.23,-0.31,-0.35,-0.26,0.6,0.17,0.77,0.52,-0.13,0.03,0.33,0.1,0.5,0.01,1.0,-0.69,0.65,-0.34,0.43,-0.27,1.11,-1.13,-0.54,0.95,-0.66,0.06,-0.7,-0.22,-0.07,0.47,0.17,0.71,240.92,14.53,0.39,-0.2,-0.61,-0.91,-2.73,-0.12,79,35.43,0.91,0,3.12,2
2024-01-01 09:02:15,-0.21,-0.92,-0.39,0.91,-0.61,0.14,-0.16,0.65,-0.7,0.09,-0.49,0.83,-1.0,-0.87,0.72,-0.47,-0.03,-0.87,-0.06,0.96,0.85,-0.01,-0.84,-0.08,0.8,0.23,0.96,0.7,0.91,-0.48,0.12,0.78,0.63,-0.34,0.33,0.05,0.34,0.67,0.18,0.37,0.61,0.56,-0.51,0.63,-0.13,-0.46,0.88,-0.4,0.95,0.98,-0.9,0.18,0.6,-0.48,0.65,0.11,0.69,-0.56,0.91,-0.07,-1.14,-0.88,-0.3,-0.52,0.55,-0.17,1.63,2.19,-0.31,-0.85,-1.76,1.83,-0.72,113.72,6.48,-0.54,-0.7,-0.33,-0.48,0.83,-2.75,104,36.52,0.41,1,2.15,2
2024-01-01 09:02:16,-0.4,-0.52,0.25,0.9,0.33,0.55,0.85,-0.89,-0.19,-0.14,-0.17,0.96,-0.33,-0.26,-0.38,-0.03,1.0,0.86,-0.21,-0.57,-0.14,-0.53,-0.51,0.61,-0.33,0.2,0.19,0.71,-0.8,-0.84,0.47,-0.7,-0.14,0.79,0.87,0.59,0.39,-0.7,-0.9,-0.06,-0.93,-0.42,0.69,0.36,0.84,0.4,0.33,-0.82,-0.67,-0.38,-0.8,0.99,-0.84,-0.92,-1.0,0.85,0.58,0.79,0.65,-0.02,-0.19,0.72,-0.69,0.59,0.09,-0.72,-1.81,0.41,0.32,-0.74,0.76,-0.49,1.03,138.81,9.37,0.3,1.48,0.36,0.03,-1.88,0.05,123,36.58,0.83,1,0.78,3
2024-01-01 09:02:17,0.21,-0.48,0.29,0.4,-0.81,0.21,0.38,-0.94,0.7,0.33,0.39,0.62,-0.28,0.02,-0.41,0.41,-0.2,0.61,-0.53,0.97,-0.38,-0.35,-0.52,-0.7,-0.69,-0.84,0.18,-0.76,-0.78,-0.1,-0.7,-0.85,0.54,0.38,0.16,0.44,-0.13,-0.75,0.29,0.89,0.1,0.18,0.87,-0.58,-0.05,-0.93,-0.69,-0.62,-0.87,-0.94,0.71,-0.5,-0.63,-0.0,0.32,-0.21,0.42,-0.35,-0.73,-0.35,-0.24,1.62,0.21,0.78,1.4,1.34,-0.09,2.13,-0.51,1.33,-0.75,0.86,-0.96,292.67,11.34,0.62,-0.85,-1.04,-0.97,0.5,0.49,90,37.87,0.75,0,0.14,1
2024-01-01 09:02:18,0.91,-0.17,-0.03,0.98,-0.7,0.77,-0.52,0.21,0.91,0.81,0.44,-0.16,0.54,0.26,0.42,0.6,-0.25,-0.99,-0.03,0.65,0.0,-0.58,-0.33,0.32,0.47,0.01,0.06,0.78,0.99,0.22,0.22,-0.13,0.9,0.6,-0.09,0.44,0.09,0.08,0.51,-0.91,-0.33,-0.19,0.25,0.58,-0.05,0.76,0.86,0.83,0.22,-0.54,-0.37,0.18,-0.1,-0.4,0.3,-0.92,-0.54,0.81,-0.49,-0.47,0.49,0.22,-0.48,-0.72,-1.04,-1.09,1.21,-1.06,-0.93,-1.0,-1.33,0.3,-0.54,196.76,5.61,-0.16,-0.12,0.29,0.1,1.18,-0.67,130,37.46,0.24,0,2.21,0
2024-01-01 09:02:19,0.6,-0.45,0.63,0.09,-0.17,0.0,0.91,0.59,0.28,-0.39,0.2,-0.9,0.98,-0.57,0.32,-0.42,-0.77,-0.53,0.98,0.12,-0.34,0.09,-0.6,0.37,-0.84,0.29,0.89,-0.96,-0.74,0.5,-0.48,0.31,0.34,-0.17,0.81,-0.59,-0.67,-0.8,0.86,-0.38,0.08,0.1,-0.86,0.97,0.75,0.71,-0.99,-0.52,0.56,0.59,0.89,0.93,-0.77,-0.1,-0.76,0.53,0.56,-0.07,-0.76,0.34,-0.59,-0.09,-0.07,-1.48,-1.58,-0.14,1.39,1.48,-1.12,-0.43,0.16,0.3,-0.97,141.23,6.25,1.7,-0.57,0.37,-0.33,-0.32,0.76,120,35.28,0.18,0,2.77,2
2024-01-01 09:02:20,0.45,0.82,0.24,0.94,0.53,0.98,-0.68,-0.32,0.04,0.38,-0.61,0.98,0.51,-0.3,-0.32,-0.22,0.51,-0.79,0.02,0.62,-0.58,-0.62,0.27,0.55,0.5,-0.87,0.99,-0.55,0.31,0.83,-0.01,0.54,-0.23,0.29,-0.6,-0.92,-0.09,-0.99,-0.29,0.98,0.87,0.3,-0.17,0.68,0.94,0.72,-0.83,0.69,0.19,0.12,-0.77,-0.73,-0.01,0.99,0.45,-0.32,0.25,-0.94,0.67,-0.37,0.98,0.68,-0.88,-1.35,2.66,0.31,-0.9,0.94,-0.91,1.97,-0.41,0.86,-0.04,148.65,17.33,-1.52,-0.98,-0.77,-0.68,0.19,-2.43,88,35.12,0.11,1,3.36,1
2024-01-01 09:02:21,0.39,0.63,1.0,-0.44,0.7,0.96,0.95,-0.27,-0.0,0.48,-0.19,-0.95,-0.43,-0.63,-0.81,-0.73,0.05,0.2,-0.8,-0.77,0.95,0.54,-0.36,-0.75,0.15,0.16,-0.84,-0.9,-0.38,0.52,0.51,0.83,-0.84,0.43,0.87,0.74,0.09,0.81,0.32,-0.8,-0.19,0.86,-0.38,0.76,-0.81,-0.33,0.48,-0.73,-0.81,0.89,-0.99,0.78,-0.91,0.62,-0.19,-0.79,-0.68,0.88,0.79,-0.5,0.19,-1.98,0.36,-0.8,0.13,-1.33,-0.63,-2.05,-1.25,1.4,1.43,-1.24,-0.34,153.49,7.78,0.46,0.08,-0.58,-1.56,0.88,-0.51,128,36.71,0.87,0,2.4,1
2024-01-01 09:02:22,-0.66,0.91,0.73,0.02,0.98,-0.99,0.05,-0.45,0.59,0.55,-0.62,0.1,-0.88,-0.58,0.33,-0.62,0.06,-0.31,-0.19,0.18,0.82,-0.42,-0.5,0.71,-0.75,-0.16,0.3,-0.0,0.96,-0.19,-0.62,-0.49,-0.74,-0.63,0.28,-0.76,0.34,-0.74,-0.92,1.0,0.49,0.46,0.37,-0.73,-0.56,0.92,0.15,0.3,0.43,0.66,-0.97,-0.79,-0.59,-0.71,0.45,0.57,0.74,-0.35,-0.18,0.32,-1.65,-0.05,-0.34,-0.51,0.13,-0.21,1.12,-0.91,-0.77,0.77,2.5,2.34,0.73,229.67,11.65,-0.35,-0.53,-0.39,-1.74,0.68,1.32,82,37.57,0.15,1,1.83,1
2024-01-01 09:02:23,-0.02,0.9,-0.13,-0.5,-0.13,-0.68,0.56,0.67,0.5,0.05,-0.59,-0.78,-0.43,-0.43,-0.65,0.54,-0.05,0.53,-0.87,-0.09,-0.39,-0.55,-0.6,0.73,0.68,0.93,-0.46,-0.04,-0.12,-0.73,0.56,0.29,-0.23,0.97,0.1,0.28,-0.71,-0.46,-0.26,-0.49,-0.8,0.72,0.03,-0.38,-0.19,-0.87,0.91,-0.79,0.8,-0.5,-0.51,0.92,0.86,0.71,0.15,0.85,0.84,0.26,0.95,-0.99,-0.14,2.09,2.73,0.89,-0.67,-0.86,0.77,1.05,-0.66,-1.16,-1.71,-1.04,-0.42,290.9,9.91,1.09,-0.57,-3.07,-0.66,-0.33,-0.36,114,37.31,0.42,1,0.11,1
2024-01-01 09:02:24,-0.63,0.47,0.44,-0.15,0.39,-0.46,-0.6,-0.2,0.68,0.2,0.13,-0.81,-0.06,-0.61,-0.51,-0.91,-0.33,-0.06,-0.52,-0.33,-0.54,0.92,-0.97,-0.85,0.13,-0.73,-0.18,-0.91,-0.07,0.07,0.48,-0.79,0.98,0.1,0.44,-0.56,-0.57,-0.26,-0.93,-0.98,0.17,-0.76,-0.44,0.18,-0.1,-0.58,-0.32,-0.53,-0.76,0.61,0.58,0.07,0.26,0.52,-0.91,0.38,0.08,0.31,0.39,-0.99,-2.58,-0.34,1.32,-0.47,-0.67,-0.77,0.15,-1.52,-1.13,1.12,0.67,-0.54,0.49,265.25,17.26,-0.92,-0.93,-0.95,-1.57,-0.09,1.99,83,37.39,0.89,0,0.53,4
2024-01-01 09:02:25,-0.54,0.15,-1.0,0.39,0.87,0.51,0.11,-0.67,0.48,0.96,0.14,0.33,-0.61,0.64,-0.53,-0.91,-0.64,0.65,-0.6,-0.41,-0.88,-0.1,0.24,-0.94,0.45,0.45,-0.27,0.51,0.52,0.67,-0.14,0.38,0.67,-0.68,-0.24,-0.66,-0.93,-0.65,0.69,-0.16,-0.83,-0.68,-0.85,-0.17,-0.13,0.4,-0.67,0.43,0.43,0.77,0.06,0.8,0.18,0.92,0.17,-0.34,-0.09,0.66,0.19,0.32,-2.0,1.69,-2.72,0.5,-1.86,0.51,-0.81,0.72,-0.8,0.49,-0.22,1.21,-0.19,127.43,11.74,0.21,0.06,0.87,0.93,0.04,-1.74,81,36.83,0.79,1,1.65,4
2024-01-01 09:02:26,-0.57,0.47,0.54,-0.96,-0.19,-0.25,0.07,0.85,0.75,-0.77,0.39,0.8,-0.54,0.4,0.9,-0.77,-0.04,0.82,0.16,0.48,-0.73,0.04,0.08,-0.54,-0.75,0.82,0.02,0.21,0.77,-0.52,0.1,-0.32,0.08,-0.48,-0.34,-0.73,-0.64,-0.14,0.7,-0.59,0.61,-0.56,0.27,0.04,0.25,-0.86,0.44,0.09,0.48,-0.36,-0.67,-0.45,0.69,-0.94,0.53,0.56,0.55,0.38,0.73,0.45,-0.98,0.78,-1.55,-0.74,-0.61,-0.24,-0.38,0.03,-1.07,-0.88,1.77,1.4,0.51,98.4,7.47,0.61,0.26,-0.07,-0.89,1.43,1.85,117,37.42,0.59,0,3.47,3
2024-01-01 09:02:27,0.91,-0.8,0.57,0.08,-0.26,0.57,0.5,0.21,0.44,0.98,-0.37,0.34,0.59,0.01,-0.42,-0.42,-0.68,0.09,-0.7,0.34,0.08,-0.43,0.04,0.54,-0.7,0.65,-0.42,0.24,-0.92,-0.24,-0.92,-0.13,-0.95,0.2,-0.99,-0.48,-0.51,-0.31,-0.32,-0.28,0.03,0.06,-0.19,0.13,-0.53,-0.7,-0.46,-0.54,-0.36,0.32,-0.27,0.64,0.57,-0.25,-0.92,0.43,0.25,-0.89,-0.58,-0.18,-0.57,1.08,-0.46,-0.82,-0.47,-0.41,0.56,-0.48,0.82,-0.77,-0.1,-1.17,-1.34,268.33,13.37,0.33,0.07,-0.5,-0.97,-1.2,0.32,109,36.07,1.0,0,0.72,0
2024-01-01 09:02:28,-0.46,-0.91,-0.76,-0.22,0.67,-0.75,0.11,0.06,-0.99,0.25,-0.48,0.71,-0.65,0.9,-0.0,0.86,0.03,-0.24,0.53,0.06,-0.87,-0.46,-0.69,-0.87,0.39,0.24,-0.41,-0.66,0.14,0.34,0.46,-0.18,-0.68,-0.51,-0.16,0.43,-0.26,0.45,0.06,-0.57,-0.38,0.56,-0.84,0.75,0.64,-0.42,0.96,-0.22,-0.29,0.5,0.52,0.73,-0.92,-0.19,-0.54,0.35,-0.32,0.37,-0.41,0.92,-0.73,1.6,0.14,0.49,1.38,-0.86,0.42,0.47,-0.55,-1.57,-2.19,-0.94,1.09,280.52,5.35,-0.81,0.93,-0.79,0.02,0.5,1.0,75,36.41,0.31,1,4.33,4
2024-01-01 09:02:29,0.15,0.63,0.01,0.84,0.54,0.46,-0.26,0.11,0.0,-0.64,0.96,-0.34,0.94,-0.07,0.66,-0.88,0.38,-0.92,0.37,-0.88,0.71,-0.52,0.83,-0.58,0.53,-0.29,0.66,-0.48,-0.37,0.42,-0.21,-0.56,-0.72,-0.8,-0.81,0.2,0.05,0.44,0.57,0.09,0.21,-0.6,0.19,0.26,-0.6,-0.57,-0.19,-0.35,-0.55,0.76,0.71,0.45,0.91,0.84,0.22,0.01,0.52,-0.35,-0.22,-0.08,-0.49,-0.67,-2.01,-0.46,3.29,-0.25,-1.45,-0.18,0.71,-0.63,-1.12,2.51,0.37,190.15,11.11,1.53,-0.4,1.77,0.91,0.51,-1.23,105,37.16,0.52,0,0.15,1
2024-01-01 09:02:30,-0.58,-0.95,0.62,0.17,-0.33,-0.17,0.1,0.68,0.05,-0.97,0.38,-0.33,0.27,-0.01,0.46,0.65,0.19,0.92,0.82,0.83,0.76,0.36,-0.22,0.22,-0.31,0.77,-0.85,0.21,0.62,0.74,0.28,0.15,-0.78,-0.42,-0.54,0.06,-0.31,-0.95,-0.72,0.99,-0.61,0.63,-0.68,-0.57,0.2,-0.7,-0.52,-0.45,-0.32,-0.85,-0.49,-0.93,0.49,0.46,-0.74,0.07,0.88,-0.91,-0.27,-0.96,-0.74,0.45,-0.35,0.37,-0.48,0.42,-0.66,0.45,-1.01,-0.34,-0.22,-0.9,-0.64,254.25,8.56,0.28,0.71,0.25,0.51,0.09,-0.69,129,36.19,0.44,0,2.64,0
2024-01-01 09:02:31,-0.77,-0.74,0.56,-0.96,-0.92,-0.61,0.98,0.04,-0.59,-0.22,0.77,-0.82,0.74,-0.95,-0.69,-0.09,-0.36,0.49,-0.8,-0.65,-0.56,0.79,-0.29,0.63,0.02,-0.63,0.14,-0.03,0.69,-0.15,0.12,0.8,0.24,0.97,0.66,-0.42,0.93,-0.77,-0.39,0.11,0.59,0.97,0.56,-0.31,-0.53,0.73,0.83,0.47,0.06,-0.19,-0.58,0.29,0.23,-0.75,-0.8,-0.26,0.38,-0.96,0.64,0.01,-1.73,-0.53,-0.12,-0.63,1.55,0.28,-0.09,0.55,2.02,-0.28,-0.96,0.32,-1.15,298.5,13.71,-0.95,1.42,1.3,0.65,0.39,-1.22,74,37.41,0.29,0,4.68,3
2024-01-01 09:02:32,0.98,0.17,-0.67,0.51,0.41,0.25,0.25,0.53,0.15,-0.25,0.56,-0.41,0.11,0.21,0.2,0.46,0.36,0.96,-0.09,0.78,-0.41,0.07,-0.27,-0.23,0.9,-0.5,-0.34,-0.79,-0.96,0.0,-0.38,0.24,0.95,-0.61,-0.65,-0.62,-0.63,0.56,0.64,-0.41,-0.72,0.94,-0.19,0.12,0.88,-0.18,0.4,0.98,-0.05,-0.2,-0.76,0.53,0.94,-0.94,-0.12,0.5,-0.38,0.89,0.45,0.04,-0.81,1.32,-0.51,-0.8,-0.19,0.58,-0.21,-0.18,-2.18,-0.07,1.0,-0.07,2.07,128.49,15.05,-0.72,-0.49,-0.67,-0.7,0.54,-0.27,108,37.72,0.65,0,3.32,4
2024-01-01 09:02:33,0.51,0.67,0.96,0.66,0.79,0.92,0.77,-0.76,-0.72,0.39,0.22,-0.32,0.1,0.7,-0.71,0.18,-0.28,0.35,-0.13,-0.47,0.57,-0.24,-0.24,-0.19,-0.85,0.66,-0.97,-0.04,-0.15,0.34,0.37,-0.71,-0.62,0.06,0.14,0.96,0.5,-0.5,-0.62,-0.47,0.08,-0.52,0.59,-0.38,0.02,0.25,-0.92,-0.94,0.92,-0.04,-0.55,-0.99,0.7,-0.13,-0.22,0.77,-0.87,-0.89,0.67,0.53,1.94,0.25,-0.87,-0.99,1.67,0.22,1.31,0.07,0.02,1.34,0.37,0.36,-0.41,190.86,6.13,0.87,-0.07,-0.56,2.15,-0.3,-0.79,112,35.58,0.61,0,0.33,0
2024-01-01 09:02:34,-0.25,-0.89,0.3,-0.84,0.26,-0.85,0.48,-0.89,-0.18,-0.65,0.26,-0.61,0.16,-0.11,-0.18,-0.71,0.46,-0.56,-0.44,-0.97,-0.01,-0.11,-0.44,-0.68,0.43,-0.1,-0.72,-0.19,0.73,0.34,0.19,-0.31,0.11,-0.82,0.74,0.45,0.65,0.85,0.85,0.96,0.13,0.86,-0.87,0.56,-0.95,0.87,0.35,-0.47,0.94,-0.6,-0.09,-0.82,-0.73,0.86,-0.28,0.86,-0.59,0.83,-0.2,-0.07,1.14,0.68,-0.66,-0.08,0.67,0.21,0.79,-0.01,0.82,-0.31,-0.65,1.05,0.29,283.98,11.96,0.69,1.22,-0.57,0.53,2.32,-0.16,83,37.55,0.9,0,3.42,0
2024-01-01 09:02:35,0.21,-1.0,-0.77,0.5,-0.52,0.03,0.34,-0.74,-0.01,0.15,-0.31,-0.76,-0.56,-0.85,0.34,-0.41,-0.47,-0.9,0.92,0.73,-0.35,-0.72,-0.21,0.02,0.95,-0.81,-0.45,0.99,-0.53,-0.59,-0.5,-0.8,-0.06,-0.78,-0.72,-0.07,0.58,0.33,-0.66,-0.63,-0.97,-0.68,-0.82,-0.02,0.64,0.07,-0.64,0.26,-0.48,0.86,-0.16,0.15,-0.32,0.66,0.57,0.37,-0.12,0.52,0.73,-0.54,-1.21,0.82,-1.66,-1.1,0.01,-0.03,0.19,2.21,0.08,-0.58,-0.64,-0.46,-1.21,260.96,8.65,0.56,0.3,0.47,0.8,0.62,-1.38,77,37.54,0.18,1,2.1,2
2024-01-01 09:02:36,-0.54,0.5,0.92,-0.95,0.57,0.18,0.44,-0.14,0.36,0.99,-0.09,0.4,-0.19,0.88,-0.53,-0.19,0.56,-0.71,0.58,-0.27,-1.0,0.08,-0.83,0.68,-0.64,0.26,-0.34,-0.68,0.98,0.36,0.32,-0.97,-0.33,0.98,0.87,0.37,-0.19,-0.7,-0.85,0.3,0.87,-0.85,0.14,-0.35,-0.2,-0.09,0.19,-0.92,0.18,0.55,-0.46,-0.14,0.22,-0.42,0.09,-0.97,-0.68,0.78,-0.92,-0.34,-0.28,-0.24,1.38,1.47,-0.43,-0.99,0.16,-0.32,-0.08,1.22,0.27,-0.48,-0.66,87.46,14.08,-1.44,0.56,0.28,0.56,-0.02,-1.06,116,35.69,0.84,1,4.88,4
2024-01-01 09:02:37,0.43,-0.5,0.94,0.3,-0.4,0.21,0.69,0.22,0.11,-0.87,-0.83,-0.31,0.25,0.02,0.92,0.5,-0.93,0.31,-0.82,0.85,-0.53,0.09,-0.1,-0.04,0.08,0.94,-0.63,0.87,-0.1,-0.24,-0.84,0.23,0.44,0.33,-0.08,0.22,-0.02,0.08,0.71,0.15,-0.13,-0.01,0.69,0.67,-0.74,0.03,-0.61,0.99,-0.92,0.29,-0.36,0.05,-0.2,-0.63,0.25,-0.53,-0.9,-0.46,-0.94,0.79,0.06,1.14,0.06,1.64,0.25,1.97,2.05,-0.9,-0.65,-0.46,-1.71,0.46,0.44,159.28,19.92,0.19,-1.22,1.59,-1.88,-1.32,0.89,94,37.18,0.33,1,2.89,0
2024-01-01 09:02:38,0.35,-0.66,0.8,-0.65,0.49,0.7,-0.46,-0.63,0.05,-0.08,-0.21,-0.72,0.65,0.22,-0.63,-0.51,0.9,0.37,0.48,0.69,0.58,0.66,-0.56,0.88,0.09,0.8,0.15,-0.79,-0.19,-0.48,0.37,0.83,-0.63,0.52,0.44,0.86,-0.64,0.89,-0.22,0.94,-0.66,0.89,-0.56,0.39,-0.31,0.22,0.37,-0.8,0.72,0.88,-0.79,0.42,-0.26,-0.95,0.29,0.04,0.91,0.9,0.12,-0.97,0.32,-0.61,0.05,0.13,1.18,-1.22,0.29,1.08,-1.0,-0.05,-0.06,-1.61,0.29,150.5,12.32,0.35,1.5,-0.02,0.44,1.47,-0.64,113,35.86,0.26,0,1.05,4
2024-01-01 09:02:39,-0.76,0.35,0.02,0.15,0.85,-0.77,-0.04,-0.03,-0.91,0.04,0.41,0.16,-0.46,-0.92,0.68,-0.58,-0.38,-0.35,-0.09,-0.35,-0.34,-0.79,0.46,-0.27,0.77,0.64,-0.05,0.69,0.05,-0.52,-0.15,0.7,-0.91,0.92,-0.47,0.69,0.39,0.29,-0.78,0.9,0.58,-0.93,-0.29,-0.09,0.23,0.9,-0.76,0.18,-0.05,-0.88,0.47,-0.74,-0.04,-0.46,-0.74,0.69,0.05,0.71,-0.3,-0.67,-1.18,0.12,-0.2,-0.09,-0.42,-0.84,0.93,-0.02,2.25,-1.04,2.01,0.29,0.02,110.11,9.96,-1.1,-0.66,1.26,-2.67,-1.8,-1.61,121,37.74,0.78,1,0.39,2
2024-01-01 09:02:40,0.73,0.17,-0.17,0.51,0.08,-0.44,0.73,-0.72,0.41,0.02,0.97,0.79,-0.44,0.26,0.47,-0.16,-0.27,0.73,0.58,0.68,-0.42,0.0,-0.39,0.23,-0.76,-0.83,0.39,0.97,-0.95,0.87,-0.99,-0.92,-0.69,-0.39,0.28,0.17,0.76,-0.85,-0.53,0.29,0.65,0.98,-0.77,-0.35,-0.37,-0.58,-0.35,-0.04,0.04,0.27,-0.15,0.48,0.36,-0.43,-0.43,0.04,0.23,-0.23,0.24,0.43,1.17,0.68,-1.01,-0.47,0.13,1.02,-1.01,0.13,-0.34,-0.1,-0.9,0.21,-0.78,111.7,19.45,0.1,1.56,1.04,1.39,0.32,1.13,114,37.97,0.22,1,4.5,3
2024-01-01 09:02:41,0.44,-0.41,-0.17,0.49,-0.74,0.69,0.97,0.41,0.84,-0.42,0.9,-0.86,-0.56,0.63,0.42,0.62,-0.79,-0.73,0.67,-0.75,0.21,0.76,0.29,0.25,0.25,-0.88,0.48,0.77,0.04,-0.17,-0.02,-0.59,0.11,-0.31,0.07,0.53,-0.19,0.41,0.33,-0.65,-0.64,-0.3,-0.07,-0.48,0.95,0.12,-0.47,-0.73,-0.69,0.14,-0.93,-0.72,-0.82,0.63,0.71,0.48,-0.24,0.32,-0.52,-0.8,-1.8,-1.69,-1.01,-0.94,1.05,-1.51,-1.36,-0.12,0.14,0.88,-0.27,-0.18,0.89,91.68,18.04,-0.9,0.12,0.57,-0.37,0.86,-0.86,115,36.32,0.12,1,0.96,3
2024-01-01 09:02:42,0.37,-0.6,0.57,0.46,0.85,0.31,0.93,0.91,0.85,-0.35,-0.65,0.15,0.13,0.23,0.48,0.76,0.91,0.47,0.6,0.31,0.17,0.28,-0.53,0.1,-0.53,-0.67,0.31,0.4,-0.51,0.16,0.79,-0.59,0.11,-0.38,-0.16,-0.02,0.29,0.47,0.77,-0.56,0.62,-0.42,0.88,0.14,-0.48,-0.49,0.62,0.55,0.22,0.45,-0.64,-0.11,0.65,0.72,-0.12,-0.63,-0.65,-0.86,-0.89,-0.51,1.56,-0.31,-0.44,-1.46,-1.12,-0.81,-1.13,-1.18,0.04,0.6,0.28,-3.2,-1.04,278.24,12.03,1.14,-1.34,-0.12,-1.1,1.31,-0.79,103,37.73,0.72,0,2.5,2
2024-01-01 09:02:43,-0.72,0.9,0.89,0.04,-0.74,-0.94,0.35,0.94,-0.73,-0.27,0.46,0.45,-0.89,-0.62,-0.92,-0.91,0.52,-0.02,0.62,0.37,-0.07,0.01,0.73,-0.12,0.37,0.39,0.44,0.76,0.33,-0.29,-0.53,0.07,0.85,0.6,0.85,0.58,0.63,-0.92,-0.97,0.96,-0.53,-0.22,-0.84,0.15,0.59,-0.36,-0.08,-0.31,0.74,0.91,0.74,0.14,0.86,-0.81,0.56,0.29,-0.67,0.85,0.88,0.5,0.69,-0.72,-2.43,0.47,-1.92,-0.91,1.87,3.13,0.02,-0.89,0.03,-1.31,-0.42,226.08,6.39,1.6,0.21,-1.42,0.41,-1.71,-1.88,82,36.43,0.65,0,0.38,1
2024-01-01 09:02:44,0.82,0.15,0.98,-0.83,0.37,-0.0,0.22,-0.77,-0.2,0.27,0.46,-0.77,-0.69,0.73,0.85,0.92,-0.18,0.51,-0.72,-0.77,0.54,0.35,-0.77,-0.23,-0.79,0.83,-0.92,0.24,-0.94,-0.73,-0.31,0.49,0.06,-0.12,-0.5,0.85,0.49,-0.57,-0.41,-0.62,-0.24,-0.58,-0.97,-0.64,0.3,0.33,-0.4,0.04,-0.7,0.57,-0.65,-0.82,-0.95,0.12,-0.21,0.05,0.84,0.72,0.15,-0.35,0.77,-0.76,1.57,-1.05,1.23,1.64,0.16,-0.3,-0.6,-0.54,-1.6,0.64,0.61,109.62,13.94,-0.23,0.03,-0.45,-1.22,-1.3,-0.57,94,35.39,0.84,0,3.53,2
2024-01-01 09:02:45,0.99,-0.3,-0.24,0.58,0.62,0.47,-1.0,0.86,0.43,0.14,-0.31,0.56,0.17,0.65,0.55,-0.54,-0.09,-0.72,-0.62,0.87,0.1,0.08,-0.23,0.53,-0.74,0.69,-0.48,-0.85,0.49,-0.69,-0.72,-0.04,-0.89,-0.75,0.23,-0.04,0.12,-0.44,-0.67,0.24,-0.11,0.44,-0.83,-0.15,0.18,-0.18,-0.74,0.72,0.06,0.89,-0.79,-0.36,0.91,-0.68,0.76,0.26,-0.98,0.4,0.73,-0.94,-0.39,1.16,0.67,1.54,0.69,-1.58,-1.48,-1.06,-0.35,-0.78,0.69,1.18,-1.21,92.9,5.25,-1.64,1.64,0.23,-0.54,1.58,1.25,93,37.72,0.41,1,2.87,3
2024-01-01 09:02:46,-0.26,0.79,-0.38,-0.87,-0.11,0.35,1.0,-0.26,-0.15,-0.66,-0.51,-0.04,-0.79,0.67,-0.5,-0.13,-0.78,0.11,0.54,0.59,0.03,-0.92,-0.95,0.82,0.59,0.11,-0.8,-0.2,0.53,-0.82,-0.68,0.03,0.09,0.03,0.62,0.34,-0.1,-0.7,-0.94,0.44,0.95,0.41,-0.07,-0.61,-0.92,-0.09,-0.51,-0.08,-0.54,-0.84,-0.9,0.74,-0.28,0.06,-0.45,-0.4,0.6,-0.65,0.41,-0.95,-0.59,0.87,1.15,0.84,1.27,-0.95,0.03,1.65,-0.39,-0.65,0.11,-1.58,0.33,204.33,7.73,-1.67,1.27,-1.62,0.85,-0.73,-1.06,104,37.58,0.68,1,2.19,3
2024-01-01 09:02:47,0.19,-0.01,-0.59,0.12,-0.33,1.0,0.61,0.55,0.21,-0.69,0.62,0.88,0.84,0.68,0.78,-0.13,-0.7,-0.29,-0.87,-0.52,-0.72,0.71,-0.96,-0.88,-0.47,-0.17,-0.8,0.93,0.25,-0.95,-0.86,-0.77,-0.11,-0.03,-0.07,0.83,-0.93,0.5,-0.47,-0.53,0.54,0.1,0.64,0.13,0.4,0.42,0.39,0.15,-0.37,0.34,0.42,-0.37,-0.66,-0.49,0.22,-0.92,0.18,0.29,0.2,-0.01,0.03,0.3,0.09,0.34,0.69,-2.01,0.14,-1.36,-1.27,-1.1,-1.97,-0.01,-1.77,280.77,16.75,0.41,1.52,1.56,-1.09,-1.19,0.78,103,37.97,0.64,0,1.07,4
2024-01-01 09:02:48,-0.12,-0.76,-0.17,0.21,0.5,-0.8,0.82,0.91,-0.7,-0.03,0.91,-0.03,0.14,-0.5,0.66,0.52,-0.13,-0.58,0.38,0.03,0.18,-0.42,0.14,-0.77,0.22,0.61,-0.87,0.65,-0.47,0.77,0.7,0.91,-0.72,-0.57,-0.9,-0.08,0.81,0.69,-0.79,-0.18,0.68,0.32,0.32,0.26,0.32,-0.48,0.7,0.8,0.09,0.95,-0.83,-0.26,0.4,0.23,0.03,0.01,0.99,0.17,0.8,0.79,0.06,-0.07,-1.31,0.12,0.87,-0.77,0.46,0.16,-0.65,-0.05,-1.05,0.86,-1.03,98.37,11.67,-0.6,0.9,-0.52,-0.94,0.18,1.8,71,37.19,0.54,1,4.65,4
2024-01-01 09:02:49,-0.94,0.64,-0.86,0.09,-0.2,-0.48,0.07,-0.68,-0.76,0.89,0.77,0.04,0.47,-0.53,0.97,0.95,-0.25,0.87,0.08,-0.88,-0.95,0.08,-0.16,-0.36,0.33,0.66,-0.64,-0.62,0.13,-0.4,-0.19,0.53,0.34,0.87,0.02,-0.0,0.63,-0.46,-0.67,0.34,0.12,0.01,-0.07,0.5,0.16,1.0,0.86,-0.05,0.27,-0.47,0.18,-0.54,-0.76,0.81,-0.82,0.16,-0.78,-0.15,-0.01,0.1,1.16,0.61,0.99,0.52,0.23,0.91,0.35,-0.05,0.19,0.33,0.31,0.36,-0.99,134.58,12.31,-0.21,-1.27,0.26,0.34,1.32,0.3,113,37.68,0.69,0,1.73,3
2024-01-01 09:02:50,-0.29,0.56,-0.08,0.6,0.61,0.34,-0.2,-0.41,-0.91,0.21,-0.16,0.28,0.67,-0.25,0.09,0.44,0.87,-0.14,-0.47,0.02,-0.7,-0.11,-0.69,-0.32,-0.23,-0.68,0.87,0.16,-0.51,0.26,-0.45,0.09,-1.0,0.94,0.92,0.56,-0.47,-0.2,0.39,-0.54,-0.92,-0.13,0.97,-0.21,-0.7,0.98,0.05,0.2,-0.86,-0.96,0.67,-0.82,-0.85,1.0,-0.77,0.79,0.99,-0.5,0.32,0.97,-0.37,-0.42,0.65,-0.68,0.15,0.95,2.02,1.16,-0.53,-0.75,0.63,-0.21,-1.48,220.82,7.45,2.59,0.17,1.25,-0.33,-0.03,0.15,122,37.62,0.71,0,1.24,3
2024-01-01 09:02:51,0.44,0.79,-0.32,0.96,-0.91,-0.49,0.11,-0.81,-0.34,0.66,-0.96,-0.67,0.81,-0.44,-0.4,-0.71,-0.75,-0.81,-0.36,-0.94,-0.61,-0.42,-0.94,0.13,-0.2,-0.87,0.51,-0.03,0.82,0.5,0.54,-0.75,-0.48,0.08,0.51,0.26,0.09,0.91,0.46,0.73,-0.08,0.1,-0.81,-0.84,-0.46,0.03,0.99,0.57,0.68,0.25,0.84,0.25,0.89,0.09,0.23,0.08,0.61,-0.5,0.95,-0.21,-0.27,-0.76,2.2,0.35,-1.58,0.1,-1.44,-0.85,0.11,0.54,-2.52,1.72,-0.66,216.08,11.61,-0.22,1.53,1.71,-0.62,1.06,0.16,129,36.52,0.57,0,1.7,4
2024-01-01 09:02:52,-0.48,-0.37,0.32,-0.78,0.23,0.44,0.36,-0.88,0.37,-0.04,-0.28,0.39,-0.24,0.39,-0.3,-0.86,-0.84,0.37,-0.88,0.67,0.08,0.54,0.62,-0.59,-0.37,-0.18,0.42,-0.75,0.03,-0.48,-0.26,-0.89,-0.03,-0.9,0.19,0.3,-0.4,-0.73,0.06,0.16,-0.64,-0.41,-0.25,-0.25,0.73,0.57,0.48,0.11,-0.13,-0.0,-0.9,0.58,-0.48,-0.97,0.58,-0.38,-0.15,-0.27,0.51,-0.32,2.65,-0.67,1.65,-0.59,-1.07,-0.3,-1.64,-0.93,-0.32,-0.25,0.92,0.82,-0.04,276.34,13.57,-1.74,-2.13,-0.53,-0.84,-0.59,1.62,120,37.86,0.77,0,1.04,4
2024-01-01 09:02:53,0.61,-0.94,-0.74,0.71,-0.26,0.6,0.75,0.57,0.71,-0.63,-0.16,0.4,-0.89,-0.21,-0.33,0.22,-0.54,-0.89,0.39,0.35,-0.68,-0.63,-0.65,-0.41,0.93,0.6,-0.14,0.76,0.39,-0.05,-0.2,0.53,0.23,-0.22,-0.79,-0.65,0.42,-0.8,-0.25,0.94,0.01,0.91,0.07,0.03,-0.22,-0.88,0.52,0.96,-0.97,-0.05,0.03,-0.21,0.42,0.98,-0.74,0.75,-0.65,0.19,0.88,-0.11,-0.61,-0.87,-0.0,-0.52,0.6,0.25,1.85,-0.29,1.93,0.7,0.53,-1.99,-2.14,252.83,5.2,-1.61,0.21,0.75,0.53,0.04,0.9,121,35.82,0.13,1,3.98,1
2024-01-01 09:02:54,0.28,-0.15,-0.71,-0.78,-0.67,-0.59,-0.5,0.47,0.77,-0.32,-0.14,0.39,0.46,0.73,0.06,-0.08,-0.3,0.64,-0.66,0.97,0.9,-0.65,-0.74,0.34,0.39,-0.53,-0.35,-0.49,0.59,0.96,-0.46,-0.94,0.89,-0.49,0.31,-0.43,-0.07,0.48,0.74,0.69,-0.85,-0.72,-0.61,0.87,0.97,-0.43,0.07,0.53,0.46,-0.02,0.88,0.47,0.97,-0.1,0.8,-0.2,-0.59,0.33,0.29,0.36,1.19,-0.31,0.56,0.38,0.81,0.33,0.26,-0.6,0.21,-0.34,-1.07,0.3,-1.02,116.6,7.55,-0.04,-0.37,-0.56,1.41,1.64,-0.3,82,37.6,0.56,1,3.46,0
2024-01-01 09:02:55,0.8,-0.29,-0.97,0.09,0.6,-0.87,0.57,0.92,0.65,-0.49,0.43,-0.61,-0.23,0.99,0.96,-0.35,0.09,0.66,-0.47,0.79,-0.34,-0.54,-0.39,-0.93,0.84,0.4,0.27,-0.79,-0.86,0.75,-0.12,0.01,0.03,-0.87,-0.15,0.98,-0.44,-0.49,0.34,-0.28,-0.48,-0.89,0.06,0.64,0.76,0.38,-0.05,0.24,-0.1,0.57,-0.79,0.28,0.3,0.82,0.45,-0.36,0.29,-0.75,0.07,0.92,1.0,-1.58,-1.18,-0.06,-1.07,0.38,0.29,-0.05,2.37,0.37,0.58,0.49,-0.9,192.75,8.83,1.95,-1.4,0.29,0.74,0.98,-0.31,104,37.21,0.8,1,4.94,4
2024-01-01 09:02:56,0.03,-0.69,0.77,0.38,-0.88,0.99,-0.37,0.16,-0.73,-0.04,-0.45,-0.1,-0.72,-0.25,-0.93,-0.82,0.46,0.2,0.5,-0.24,-0.49,-0.46,0.81,0.66,0.3,0.18,-0.67,-0.53,0.14,-0.79,0.95,0.97,0.32,-0.0,-0.22,0.63,0.89,0.13,0.97,0.03,0.03,-0.9,0.16,0.85,-0.66,-0.76,0.63,-0.97,-0.54,0.78,-0.97,0.38,-0.23,-0.13,-0.77,0.82,0.02,0.26,0.34,0.12,0.74,-1.05,1.67,-0.16,-0.5,-0.64,0.3,-1.58,0.88,-0.6,1.3,-1.24,0.13,256.45,12.21,0.55,0.66,-0.52,-1.23,-0.46,1.17,94,35.37,0.55,1,1.03,3
2024-01-01 09:02:57,0.59,-0.42,0.83,-0.53,0.11,0.86,0.3,0.28,-0.83,0.02,-0.91,-0.03,-0.16,0.5,0.71,0.28,-0.61,-0.38,0.73,0.18,0.66,0.58,-0.93,-0.6,0.55,-0.97,0.67,-0.19,-0.64,-0.26,0.63,0.89,0.9,0.18,-0.12,-0.85,-0.96,0.38,-0.13,0.94,0.34,-0.16,-0.82,-0.97,0.29,0.83,-0.4,-0.83,-0.82,0.68,0.99,-0.55,-0.44,0.62,0.08,-0.8,0.23,0.84,0.18,0.54,2.09,-1.62,-0.74,-1.73,-0.55,-0.64,-1.2,1.66,1.15,0.24,-0.11,0.89,-1.0,183.28,12.84,0.24,-0.61,2.34,-1.36,-0.27,-1.29,70,36.1,0.56,0,2.21,4
2024-01-01 09:02:58,-0.6,0.11,-0.24,0.45,0.13,-0.19,-0.22,-0.08,-0.97,-0.53,-0.13,0.11,0.8,0.13,-0.06,0.99,0.32,-0.03,0.23,-0.27,-0.26,0.18,-0.64,-0.09,-0.84,-0.09,-0.25,0.39,-0.53,-0.96,-0.83,-0.14,0.4,0.98,-0.09,0.93,0.04,0.12,0.75,-0.24,-0.39,-0.84,0.71,0.52,0.96,0.14,0.87,0.88,0.57,-0.28,0.02,0.94,-0.76,-0.03,-0.42,-0.82,0.5,-0.02,-0.23,-0.63,0.75,0.75,-0.7,-1.24,-0.39,-0.7,0.06,1.62,0.66,0.76,-0.0,2.64,0.12,96.42,13.13,0.73,1.1,-0.05,0.21,-0.57,0.02,121,37.5,0.55,1,0.55,4
2024-01-01 09:02:59,-0.19,-0.72,-0.47,-0.67,0.21,-0.04,0.02,-0.85,-0.89,0.41,0.99,0.77,0.44,-0.27,0.83,-0.79,0.11,0.36,-0.25,0.67,-0.91,-0.13,0.01,-0.99,0.16,-0.75,0.74,-0.01,-1.0,0.15,0.88,-0.9,0.26,-0.56,0.41,-0.32,-0.45,-0.89,-0.66,0.65,-0.44,0.73,0.98,0.01,0.84,0.22,0.77,0.77,-0.44,-0.88,-0.03,0.3,0.82,0.03,-0.68,-0.48,-0.09,-0.82,0.99,-0.86,1.46,1.16,0.69,0.91,-0.04,0.95,-0.15,-1.63,1.83,-0.2,1.05,-0.36,-2.69,287.15,13.13,-0.07,-1.84,0.76,-0.23,1.22,0.23,129,37.38,0.37,1,0.42,2
2024-01-01 09:03:00,0.89,0.28,0.51,-0.88,-0.77,-0.26,-1.0,-0.64,-0.07,0.61,0.96,0.31,-0.37,-0.15,0.5,-0.91,-0.27,0.89,0.72,-0.12,0.64,-0.73,-0.91,-0.08,0.62,0.19,0.36,-0.99,-0.03,0.81,0.66,0.31,0.75,0.15,-0.38,0.42,0.4,-0.55,0.29,0.59,0.04,-0.17,0.11,-0.57,0.71,-0.31,0.19,-0.44,-0.06,-0.77,0.67,-0.82,0.25,0.44,0.85,0.95,-0.6,-0.38,0.08,-0.57,-1.03,0.67,-1.56,-0.31,-1.86,0.35,0.25,0.13,-0.94,1.35,0.91,0.23,-0.58,249.51,16.6,-0.35,-0.02,-1.1,0.85,1.26,1.71,72,35.77,0.05,1,3.9,4
2024-01-01 09:03:01,-0.19,0.37,-0.86,0.78,-0.57,0.76,0.58,-0.28,-0.49,0.53,0.65,-0.33,0.84,-0.16,-0.88,0.72,0.96,-0.13,0.49,-0.1,0.18,-0.56,0.44,-0.5,-0.4,0.08,-0.61,-0.39,-0.65,0.6,-0.23,0.96,0.82,0.94,-0.4,0.83,0.08,-0.34,-0.89,0.63,0.85,0.41,-0.21,-0.1,-0.33,-0.84,0.92,-0.68,0.13,0.46,-0.98,-0.93,0.87,0.8,-0.35,-0.91,0.26,-0.38,-0.94,0.98,-0.34,1.38,1.44,-0.63,-1.0,1.09,-0.55,-0.73,0.82,-1.39,-0.45,-1.86,-0.84,102.38,8.5,-0.66,-0.75,-0.43,-2.05,-1.01,1.34,130,35.25,0.1,1,0.56,0
2024-01-01 09:03:02,-0.72,0.61,0.41,-0.11,-0.22,0.37,-0.65,0.27,-0.19,0.24,0.84,-0.37,0.84,-0.46,0.88,0.37,1.0,0.79,0.33,-0.64,0.8,0.57,0.8,-0.29,0.92,-0.98,0.72,0.52,0.4,-0.9,-0.36,-0.33,0.73,0.86,0.81,-0.31,0.6,0.37,0.18,-0.12,0.78,-0.32,-0.12,-0.91,0.67,-0.8,-0.11,-0.62,-0.74,0.19,-0.9,-0.29,0.49,0.35,0.29,0.83,0.33,0.66,-0.9,0.97,0.3,-0.51,-0.66,0.77,0.09,-1.12,-0.53,-1.24,-0.69,0.69,0.58,1.03,0.14,143.33,15.16,-1.51,-1.25,0.47,0.1,-1.16,-0.34,83,37.91,0.77,0,1.1,4
2024-01-01 09:03:03,-0.76,-0.45,-0.75,-0.94,-0.57,-0.91,0.22,0.94,-0.43,-0.86,-0.4,0.23,-0.81,-0.56,0.31,0.76,0.23,-0.65,0.09,-0.31,0.5,0.82,0.37,-0.32,-0.91,-0.22,-0.93,-0.18,-0.03,0.88,-0.97,-0.96,0.14,0.89,0.82,0.09,-0.85,-0.23,-0.12,-0.47,0.56,0.79,0.99,0.0,0.39,-0.75,0.78,-0.56,-0.61,0.7,-0.39,0.4,0.97,0.72,-0.96,-0.21,-0.08,0.52,0.69,-0.33,1.9,0.93,1.5,-1.18,1.67,-0.52,1.57,0.36,0.63,0.69,0.1,0.58,-1.02,81.77,7.41,-0.13,0.78,0.11,-0.35,0.23,-1.36,92,37.49,0.07,0,4.93,2
2024-01-01 09:03:04,-0.49,0.8,-0.63,-0.79,0.07,-0.63,-0.88,-0.63,0.89,0.4,-0.7,0.58,-0.38,0.71,-0.86,0.47,-0.94,-0.92,0.79,-0.16,0.35,-0.29,-0.99,0.53,0.08,0.83,0.02,-0.51,-0.7,0.81,-0.82,-0.21,-0.56,-0.73,0.86,-0.44,0.36,0.92,0.85,-0.09,0.51,0.99,0.11,0.96,-0.1,0.71,0.72,-0.82,0.19,0.19,-0.15,-0.67,-0.91,0.91,-0.52,0.34,0.76,0.59,0.77,-0.72,1.05,-2.08,-0.02,0.76,0.08,-0.47,1.1,-0.69,1.68,-0.21,-0.25,0.73,-0.31,161.41,12.81,0.1,0.57,-1.23,0.61,-1.69,-0.01,74,35.77,0.98,0,3.51,1
2024-01-01 09:03:05,-1.0,-0.11,-0.82,-0.31,-0.68,0.43,0.1,-0.64,-0.14,0.91,-0.8,0.59,0.45,-0.66,-0.29,0.82,0.57,0.04,0.82,0.45,0.37,0.13,-0.13,0.55,0.01,-0.58,-0.26,0.1,-0.84,0.18,-0.37,0.5,0.38,-0.06,0.41,-0.81,0.11,-0.91,-0.9,0.98,-0.32,-0.53,0.07,0.62,0.21,-0.57,0.09,-0.25,0.89,0.02,0.16,0.8,0.61,-0.45,0.92,-0.38,-0.89,-0.81,0.03,-0.66,-0.36,-1.31,1.69,0.17,-0.65,0.14,2.49,-1.0,0.66,-0.91,0.48,-0.66,-0.16,245.88,7.44,0.16,1.32,-1.47,1.7,-1.92,0.33,73,35.53,0.21,1,2.73,1
2024-01-01 09:03:06,-0.73,0.89,-0.88,-0.82,-0.44,0.97,0.31,0.46,0.85,0.72,0.5,-0.87,0.95,0.91,0.15,0.42,0.4,0.35,0.47,0.47,-0.74,0.27,0.96,-0.45,0.43,-0.7,0.7,-0.74,-0.12,-0.28,0.86,0.39,-0.79,-0.25,-0.61,0.8,0.52,0.01,-0.16,0.77,-0.19,-0.21,-0.99,0.97,-0.89,0.43,0.19,0.87,-0.12,-0.08,-0.2,0.17,0.22,-0.55,0.54,0.37,0.3,0.98,-0.82,0.37,0.06,-0.13,0.04,0.52,0.46,-0.18,0.7,-0.23,0.09,1.16,1.19,1.05,-1.03,258.85,19.67,0.43,0.46,1.77,0.79,-0.63,-0.38,74,36.41,0.38,0,4.32,1
2024-01-01 09:03:07,0.16,0.91,-0.56,0.89,-0.94,-0.5,0.93,0.08,-0.45,0.24,-0.22,-0.7,-0.84,0.74,0.88,-0.16,-0.97,-0.89,-0.19,0.77,0.94,-0.16,0.94,-0.21,0.91,0.75,-0.92,-0.53,-0.21,-0.69,0.14,0.61,-0.28,-0.88,0.16,0.56,0.57,-0.4,-0.93,0.93,-0.22,-0.61,-0.39,0.54,0.43,0.14,-0.31,-0.4,0.21,-0.67,-0.62,0.69,-0.23,-0.13,0.67,-0.82,0.94,-0.49,0.57,0.33,-2.54,-0.08,-0.37,-0.52,-0.78,1.54,-2.69,-1.27,2.39,0.98,0.31,-0.0,-0.59,282.32,16.08,-1.28,0.37,0.8,-0.69,-1.82,0.66,130,36.96,0.7,1,3.4,0
2024-01-01 09:03:08,0.36,0.7,0.27,0.91,0.07,-0.01,0.97,0.9,0.24,0.48,0.86,-0.7,-0.52,-0.38,0.64,-0.83,0.2,0.37,-0.47,-0.6,-0.32,-0.52,-0.73,0.93,0.98,0.89,0.95,-0.63,-0.27,-0.88,0.06,-0.55,-0.48,-0.6,0.63,0.62,-0.52,-0.84,0.67,0.7,0.06,-0.19,-0.25,0.44,-0.26,-0.07,0.46,0.83,0.13,-0.46,-0.34,-0.09,0.17,0.79,0.59,-0.46,0.54,0.8,0.27,0.89,0.78,0.83,-0.16,-2.16,-1.23,1.29,-1.35,0.7,-1.02,-1.12,1.83,1.86,0.16,159.31,8.6,-0.48,1.03,-1.58,1.21,2.02,0.58,93,36.69,0.99,1,2.03,4
2024-01-01 09:03:09,0.55,-0.24,0.61,-0.14,0.81,-0.75,-0.65,-0.43,-0.96,0.4,-0.98,-0.34,0.68,0.24,0.88,0.02,0.63,-0.63,-0.2,-0.71,0.57,-0.26,-0.24,-0.4,-0.11,-0.77,0.85,-0.97,0.74,-0.45,-0.52,0.55,0.18,-0.76,-0.64,-0.75,0.63,-0.89,0.34,-0.47,0.09,-0.61,0.59,-0.69,-0.17,-0.77,0.55,0.77,-0.57,0.62,-0.09,-0.17,0.32,-0.08,-0.79,0.81,0.81,-0.94,0.29,0.46,-1.16,1.52,0.31,-0.14,-0.97,-1.14,1.15,-0.08,-0.09,0.13,-1.95,-0.02,-0.01,189.05,12.96,1.5,0.83,-1.21,-0.39,1.05,-1.3,92,37.76,0.14,0,0.49,4
2024-01-01 09:03:10,-0.11,0.83,0.11,-0.36,-0.58,0.63,0.32,0.48,-0.65,0.78,0.01,-0.08,-0.47,0.36,0.78,-0.0,-0.78,-0.61,0.93,0.74,0.87,0.35,0.38,-0.18,-0.32,0.48,-0.7,0.81,-0.07,-0.74,-0.14,0.36,-0.19,-0.61,-0.99,-0.44,-0.88,0.65,0.85,0.26,-0.29,-0.69,-0.12,0.07,-0.95,0.87,-0.35,0.04,0.97,-0.93,0.84,-0.03,0.36,0.46,-0.87,-0.63,-0.07,0.69,-0.61,-0.15,1.7,-0.04,0.54,-0.44,-0.46,-0.92,1.54,0.59,-0.97,0.71,0.94,1.08,0.28,212.93,8.4,0.17,-0.93,1.33,0.67,0.99,-1.88,106,37.08,0.12,0,3.84,4
2024-01-01 09:03:11,0.61,0.39,-0.01,-0.67,-0.93,-0.76,-0.24,-0.31,0.42,0.04,-0.22,0.81,-0.95,0.29,0.15,0.26,-0.03,-0.51,-0.74,-0.25,0.23,0.65,0.72,0.37,0.82,-0.7,-0.7,0.39,0.63,-0.55,0.23,0.79,0.21,-0.65,-0.43,0.71,0.38,0.66,0.56,-0.56,-0.29,-0.74,-0.15,-0.83,-0.3,-0.93,-0.21,0.81,0.1,-0.08,0.02,-0.22,-0.0,0.92,0.53,0.61,0.66,-0.6,-0.92,-0.97,0.96,0.03,0.83,-1.2,1.81,-0.65,1.15,-0.2,1.85,0.3,1.88,-0.07,-1.11,107.43,10.95,0.3,-0.13,-0.6,1.24,-1.35,1.91,92,36.93,0.95,0,4.48,4
2024-01-01 09:03:12,0.36,0.26,-0.63,-0.82,0.72,0.33,0.68,-0.13,0.41,-0.48,0.72,0.56,-0.04,-0.35,0.51,-0.74,-0.58,0.94,-0.57,0.38,-0.69,0.9,0.84,0.02,0.27,0.51,-0.42,0.99,-0.31,0.98,0.72,0.13,0.43,0.33,0.37,0.72,-0.64,0.92,-0.19,-0.25,0.64,0.24,0.99,-0.58,0.31,0.8,-0.52,0.79,0.58,-0.04,0.6,-0.87,0.3,0.06,-0.46,0.37,-0.02,-0.79,-0.53,-0.03,-0.19,-1.36,0.39,0.18,-0.15,-0.63,1.31,0.54,-0.49,0.4,-0.78,0.98,2.1,149.36,17.85,1.11,-0.66,-0.96,0.1,-1.61,0.91,130,35.91,0.12,1,0.83,0
2024-01-01 09:03:13,-0.56,-0.23,-0.2,-0.89,0.57,0.33,-0.54,0.66,-0.05,-0.27,-0.87,0.46,0.58,-0.91,-0.36,0.14,0.6,0.87,0.32,-0.26,-0.14,0.44,-0.86,0.13,0.84,-0.32,-0.14,-0.97,0.87,-0.82,0.44,0.18,-0.58,-0.36,0.09,-0.28,-0.63,-0.05,-1.0,-0.73,-0.49,-0.13,-0.68,-0.97,0.25,0.3,-0.81,0.46,-0.82,-0.39,0.88,0.14,0.5,-0.14,0.89,-0.19,0.06,0.29,-0.19,0.13,0.67,-0.15,-0.29,-0.11,1.56,-0.41,-1.2,-0.78,0.99,-0.96,1.2,-0.2,-1.79,195.11,8.23,0.75,-0.27,0.37,-0.62,1.23,0.45,80,36.28,0.89,0,0.49,4
2024-01-01 09:03:14,0.97,-0.63,-0.12,-0.22,0.53,-0.08,-0.32,0.15,0.06,0.24,0.3,-0.16,-0.53,0.27,-0.58,0.26,0.14,0.83,0.39,-0.59,0.21,0.26,-0.24,-0.38,-0.94,0.02,0.45,0.16,-0.33,-0.53,-0.71,-0.68,0.17,-0.3,-0.95,-0.3,0.62,-0.46,-0.43,0.28,0.6,-0.43,-0.99,-0.9,-0.72,0.94,-0.07,-0.39,0.09,0.53,-0.01,-0.4,-0.1,-0.1,-0.38,0.88,-0.16,-0.6,0.78,-0.15,2.17,0.71,-0.23,-0.86,-1.42,-0.13,-0.09,1.59,-0.41,1.01,-0.11,1.89,-1.57,297.93,8.85,1.35,-0.5,0.89,1.57,-0.35,-1.1,91,35.1,0.41,1,1.64,1
2024-01-01 09:03:15,-0.06,-0.92,0.48,0.95,0.13,0.23,0.93,-0.12,-0.78,0.27,0.3,-0.73,0.39,-0.55,-0.59,0.39,0.19,0.44,-0.64,-0.3,-0.68,-0.68,-0.17,-0.59,-0.4,0.97,0.71,0.23,0.83,0.24,0.12,0.14,-0.33,-0.21,0.85,-0.17,-0.13,-0.4,-0.34,-0.48,0.8,0.85,0.49,-0.39,-0.49,-0.85,0.79,0.22,-0.21,0.86,0.18,0.51,-0.52,0.41,0.72,-0.45,-0.1,-0.55,0.76,0.75,-1.19,-0.85,-2.43,-0.23,0.65,0.25,-0.38,-0.89,-0.57,0.28,0.83,-1.5,0.16,138.03,12.89,0.27,-0.94,0.55,0.93,-0.57,-0.87,113,37.51,0.7,0,0.82,0
2024-01-01 09:03:16,0.19,0.0,-0.74,0.45,0.45,-0.56,0.15,0.64,0.29,0.76,0.17,0.87,-0.8,-0.68,0.93,1.0,0.52,-0.11,-0.88,-0.65,0.72,0.52,-0.04,-0.4,0.7,-0.3,-0.43,0.42,-0.17,-0.33,0.6,-0.74,0.56,-0.93,-0.98,-0.4,0.13,0.7,-0.24,-0.87,0.45,-0.55,-0.89,-0.95,0.79,0.75,-0.79,0.56,-0.59,0.73,-0.33,-0.21,-0.29,0.41,-0.22,-0.34,-0.33,0.36,-0.06,-1.0,2.16,0.8,0.18,-0.67,-0.77,0.57,-0.82,-0.87,-0.13,0.64,1.76,0.24,-0.82,286.78,19.56,-0.27,1.3,1.2,1.25,1.01,1.91,75,37.77,0.61,0,1.38,2
2024-01-01 09:03:17,0.11,-0.62,0.39,-0.21,-0.56,-0.86,0.87,0.1,-0.9,-0.59,0.78,-0.62,-0.19,0.87,0.48,-0.93,-0.5,-0.38,-0.41,-0.47,-0.58,-0.78,-0.4,0.33,0.43,-0.17,0.48,0.35,0.32,0.56,0.08,-0.94,0.1,0.8,0.9,-0.37,0.42,-0.72,0.72,-0.24,0.17,-0.9,0.77,0.31,0.29,0.94,-0.12,-0.43,-0.07,-0.62,-0.92,-0.58,-0.36,-0.69,0.07,0.58,-0.27,-0.91,-0.68,0.12,0.21,0.75,-0.81,0.23,0.27,0.79,-0.63,-1.57,-0.58,1.06,-0.21,0.47,-0.6,287.75,11.33,1.04,-0.11,-0.12,1.33,1.58,1.35,91,35.54,0.75,0,1.07,1
2024-01-01 09:03:18,0.04,-0.69,0.59,-0.98,-0.97,-0.34,0.15,-0.78,-0.59,-0.98,-0.96,-0.61,-0.18,-0.12,0.47,-0.75,0.8,0.57,-0.27,0.63,-0.12,-0.15,0.55,0.22,-0.31,0.63,-0.5,0.5,-0.65,0.28,-0.58,-0.84,0.81,0.82,0.47,0.11,-0.48,-0.02,-0.53,-0.57,0.43,0.9,-0.74,-0.75,-0.41,-0.86,0.94,0.16,0.48,1.0,0.54,-0.82,0.44,0.92,0.32,-0.74,-0.9,-0.25,-0.12,0.76,-0.33,-0.59,-0.91,-1.49,-0.93,-0.85,-1.26,-1.52,-1.3,-0.05,0.44,0.35,-0.52,170.99,17.47,-0.35,0.37,0.19,0.56,-0.96,1.73,112,37.65,0.46,0,4.18,3
2024-01-01 09:03:19,0.28,0.38,-0.36,-0.48,-0.79,0.57,0.2,0.72,0.85,-0.9,-0.28,0.08,0.07,0.84,-0.69,0.36,0.26,-0.32,0.74,-0.87,-0.69,0.2,0.61,0.17,0.38,-0.23,0.52,-0.44,-0.49,0.01,0.48,0.89,-0.03,0.25,-0.1,0.54,-0.85,-0.63,-0.74,-0.83,-0.91,0.06,0.93,-0.92,0.39,0.97,0.11,0.61,0.49,-0.9,0.83,0.95,-0.85,0.71,0.73,-0.03,0.39,0.6,0.87,0.2,0.63,0.74,-1.06,-1.08,-0.7,0.74,-1.16,0.45,1.46,-0.71,-0.94,-0.73,-0.16,157.55,13.82,0.95,1.01,0.8,-1.94,-0.19,-0.88,109,36.85,0.69,0,3.03,0
2024-01-01 09:03:20,-0.01,-0.65,-0.72,-0.02,-0.22,-0.49,-0.56,-0.09,-0.67,-0.28,-0.42,-0.71,-0.25,-0.25,-0.36,0.62,0.18,0.29,0.7,-0.62,-0.61,0.47,0.38,0.63,-0.6,-0.42,-0.4,0.75,0.67,-0.39,0.68,-0.0,0.2,0.84,-0.98,-0.07,0.61,-0.98,-0.25,0.37,0.53,0.37,-0.86,0.53,-0.37,0.58,-0.1,-0.49,0.4,-0.64,-0.15,0.32,-0.68,0.76,0.48,-0.17,-0.46,-0.1,-0.0,-0.36,0.4,0.9,-0.5,1.92,-0.91,0.53,2.14,0.92,0.59,-0.17,0.61,-0.55,1.13,117.51,18.68,-0.72,-0.25,-0.84,-0.34,-0.46,-2.02,106,35.46,0.42,1,1.81,0
2024-01-01 09:03:21,-0.72,0.21,-0.94,-0.26,0.45,-0.68,0.19,-0.77,-0.35,0.73,0.86,-0.18,-0.92,0.18,-0.37,0.33,0.16,-0.53,-0.51,0.34,0.62,0.29,-0.66,0.24,-0.41,0.53,-0.64,-0.14,-0.85,0.33,0.25,-0.95,0.34,-0.32,-0.61,0.45,-0.55,0.08,0.7,-0.91,0.15,0.7,-0.55,0.71,-0.87,0.28,-0.65,-0.7,0.9,-0.65,-0.85,0.5,0.02,0.82,-0.77,-0.26,-0.69,-0.13,-0.17,-0.0,0.03,-0.48,-1.31,-0.68,0.36,-1.77,-0.16,1.15,-0.43,1.46,1.08,0.36,-0.02,168.32,18.4,0.01,0.49,2.0,0.5,1.49,-1.16,76,37.29,0.11,1,1.38,4
2024-01-01 09:03:22,-0.88,-0.38,-0.39,-0.73,0.67,-1.0,0.59,-0.64,0.86,0.83,-0.0,0.28,-0.04,0.66,0.04,0.55,0.92,0.28,-0.44,0.74,0.5,0.55,-0.76,-0.13,-0.74,-0.41,-0.64,0.22,0.43,-0.13,-0.71,-0.85,-0.63,-0.39,-0.87,-0.43,0.22,0.06,0.59,-0.77,0.47,0.88,0.83,0.14,0.72,0.73,-0.82,0.73,-0.11,0.65,-0.19,0.22,0.95,-0.44,0.38,-0.81,-0.68,0.4,-0.78,0.1,-0.54,0.02,1.34,-1.79,3.02,-0.0,1.18,-0.02,-0.82,1.71,-0.19,-0.72,0.38,92.54,18.13,0.6,0.33,0.42,0.38,1.23,0.06,97,36.23,0.74,0,3.56,0
2024-01-01 09:03:23,-0.99,0.87,0.5,0.08,-0.61,-0.21,0.75,-0.99,0.26,-0.35,-0.64,-0.51,0.06,-0.53,0.42,0.87,0.11,-0.68,-0.16,0.62,-0.66,0.56,0.53,-0.88,-0.1,0.07,-0.14,0.65,0.51,0.87,0.72,-0.65,0.11,0.78,0.76,0.0,0.79,0.35,0.77,-0.59,0.63,-0.18,0.49,0.01,0.27,0.77,0.93,0.83,0.5,0.54,-0.65,-0.09,-0.5,0.1,0.93,-0.78,0.95,-0.62,0.33,0.58,-0.65,0.72,-2.46,0.6,1.51,0.76,-1.59,1.44,-0.55,0.2,1.29,-0.62,0.14,124.25,8.38,-1.3,-0.19,-1.17,0.48,-1.45,-0.09,108,35.46,0.67,0,1.81,1
2024-01-01 09:03:24,-0.08,0.2,0.71,0.06,-0.35,0.88,0.47,0.4,-0.19,0.79,-0.01,-0.81,-0.91,0.51,0.45,0.65,-0.67,0.27,0.87,0.05,0.71,0.63,-0.51,-0.85,-0.75,0.21,0.91,-0.77,0.84,0.39,-0.3,0.19,0.16,0.07,-0.51,0.39,-0.3,-0.01,0.47,-0.97,0.43,0.46,0.4,-0.25,0.39,0.64,0.07,0.53,0.22,-0.29,0.66,-0.72,-0.1,-0.38,0.01,0.13,0.9,-0.31,-0.55,-0.45,-0.57,-0.72,1.1,-1.07,-0.54,0.19,0.64,-1.81,-0.18,0.76,1.66,0.03,-1.4,175.73,14.55,-0.01,-0.48,0.34,1.84,-1.17,1.1,118,36.33,0.3,0,2.94,4
